(Projekt DIYBody - Frontplatte_EMS_grosse_schrift)
(Erstellt mit Estlcam Version 11 Build 11,245)
(Laufzeit ca. 00:02:14 Stunden)

(Benoetigte Werkzeuge:)
(Fraeser 3mm)

G90
G91.1
M03 S20000
G00 Z5.0000


(Nr. 1: Ausschnitt 24)
G00 X18.0529 Y8.0529
G00 Z0.5000
G01 Z0.0000 F20.000 S20000
G01 Y8.1395 Z-0.0750
G01 Y8.0529 Z-0.1500
G01 X18.0530 Y31.0529
G01 X32.0529
G01 Y8.0529
G01 X18.0529
G01 Y8.1395 Z-0.2250
G01 Y8.0529 Z-0.3000
G01 X18.0530 Y31.0529
G01 X32.0529
G01 Y8.0529
G01 X18.0529
G01 Y8.1395 Z-0.3750
G01 Y8.0529 Z-0.4500
G01 X18.0530 Y31.0529
G01 X32.0529
G01 Y8.0529
G01 X18.0529
G01 Y8.1106 Z-0.5000
G01 Y8.0529 Z-0.5500
G01 X18.0530 Y31.0529
G01 X32.0529
G01 Y8.0529
G01 X18.0529
G00 Z5.0000


(Nr. 2: Ausschnitt 25)
G00 X54.0530 Y8.0531 Z5.0000
G00 Z0.5000
G01 Z0.0000 F20.000
G01 Y8.1397 Z-0.0750
G01 Y8.0531 Z-0.1500
G01 X54.0528 Y31.0536
G01 X68.0529 Y31.0535
G01 Y8.0530
G01 X54.0530 Y8.0531
G01 Y8.1397 Z-0.2250
G01 Y8.0531 Z-0.3000
G01 X54.0528 Y31.0536
G01 X68.0529 Y31.0535
G01 Y8.0530
G01 X54.0530 Y8.0531
G01 Y8.1397 Z-0.3750
G01 Y8.0531 Z-0.4500
G01 X54.0528 Y31.0536
G01 X68.0529 Y31.0535
G01 Y8.0530
G01 X54.0530 Y8.0531
G01 Y8.1109 Z-0.5000
G01 Y8.0531 Z-0.5500
G01 X54.0528 Y31.0536
G01 X68.0529 Y31.0535
G01 Y8.0530
G01 X54.0530 Y8.0531
G00 Z5.0000


(Nr. 3: Ausschnitt 26)
G00 X90.0529 Y8.0531 Z5.0000
G00 Z0.5000
G01 Z0.0000 F20.000
G01 Y8.1397 Z-0.0750
G01 Y8.0531 Z-0.1500
G01 X90.0528 Y31.0536
G01 X104.0528 Y31.0535
G01 X104.0529 Y8.0530
G01 X90.0529 Y8.0531
G01 Y8.1397 Z-0.2250
G01 Y8.0531 Z-0.3000
G01 X90.0528 Y31.0536
G01 X104.0528 Y31.0535
G01 X104.0529 Y8.0530
G01 X90.0529 Y8.0531
G01 Y8.1397 Z-0.3750
G01 Y8.0531 Z-0.4500
G01 X90.0528 Y31.0536
G01 X104.0528 Y31.0535
G01 X104.0529 Y8.0530
G01 X90.0529 Y8.0531
G01 Y8.1109 Z-0.5000
G01 Y8.0531 Z-0.5500
G01 X90.0528 Y31.0536
G01 X104.0528 Y31.0535
G01 X104.0529 Y8.0530
G01 X90.0529 Y8.0531
G00 Z5.0000


(Nr. 4: Ausschnitt 27)
G00 X126.0530 Y8.0531 Z5.0000
G00 Z0.5000
G01 Z0.0000 F20.000
G01 Y8.1397 Z-0.0750
G01 Y8.0531 Z-0.1500
G01 X126.0528 Y31.0536
G01 X140.0528 Y31.0535
G01 X140.0529 Y8.0530
G01 X126.0530 Y8.0531
G01 Y8.1397 Z-0.2250
G01 Y8.0531 Z-0.3000
G01 X126.0528 Y31.0536
G01 X140.0528 Y31.0535
G01 X140.0529 Y8.0530
G01 X126.0530 Y8.0531
G01 Y8.1397 Z-0.3750
G01 Y8.0531 Z-0.4500
G01 X126.0528 Y31.0536
G01 X140.0528 Y31.0535
G01 X140.0529 Y8.0530
G01 X126.0530 Y8.0531
G01 Y8.1109 Z-0.5000
G01 Y8.0531 Z-0.5500
G01 X126.0528 Y31.0536
G01 X140.0528 Y31.0535
G01 X140.0529 Y8.0530
G01 X126.0530 Y8.0531
G00 Z5.0000


(Nr. 5: Ausschnitt 28)
G00 X24.0210 Y45.5558 Z5.0000
G00 Z0.5000
G01 Z0.0000 F20.000
G02 X23.9449 Y45.5971 Z-0.0750 I1.0332 J1.9971
G03 X24.0210 Y45.5558 Z-0.1500 I1.1093 J1.9558
G02 X23.8413 Y49.4462 I1.0332 J1.9971
G02 X27.3003 Y47.6567 I1.2129 J-1.8933
G02 X24.0210 Y45.5558 I-2.2461 J-0.1038
G02 X23.9449 Y45.5971 Z-0.2250 I1.0332 J1.9971
G03 X24.0210 Y45.5558 Z-0.3000 I1.1093 J1.9558
G02 X23.8413 Y49.4462 I1.0332 J1.9971
G02 X27.3003 Y47.6567 I1.2129 J-1.8933
G02 X24.0210 Y45.5558 I-2.2461 J-0.1038
G02 X23.9449 Y45.5971 Z-0.3750 I1.0332 J1.9971
G03 X24.0210 Y45.5558 Z-0.4500 I1.1093 J1.9558
G02 X23.8413 Y49.4462 I1.0332 J1.9971
G02 X27.3003 Y47.6567 I1.2129 J-1.8933
G02 X24.0210 Y45.5558 I-2.2461 J-0.1038
G02 X23.9701 Y45.5830 Z-0.5000 I1.0332 J1.9971
G03 X24.0210 Y45.5558 Z-0.5500 I1.0841 J1.9699
G02 X23.8413 Y49.4462 I1.0332 J1.9971
G02 X27.3003 Y47.6567 I1.2129 J-1.8933
G02 X24.0210 Y45.5558 I-2.2461 J-0.1038
G00 Z5.0000


(Nr. 6: Ausschnitt 29)
G00 X24.3514 Y75.4172 Z5.0000
G00 Z0.5000
G01 Z0.0000 F20.000
G02 X24.2697 Y75.4459 Z-0.0750 I0.7028 J2.1358
G03 X24.3514 Y75.4172 Z-0.1500 I0.7845 J2.1072
G02 X23.5559 Y79.2296 I0.7028 J2.1358
G02 X27.2553 Y78.0123 I1.4983 J-1.6766
G02 X24.3514 Y75.4172 I-2.2011 J-0.4593
G02 X24.2697 Y75.4459 Z-0.2250 I0.7028 J2.1358
G03 X24.3514 Y75.4172 Z-0.3000 I0.7845 J2.1072
G02 X23.5559 Y79.2296 I0.7028 J2.1358
G02 X27.2553 Y78.0123 I1.4983 J-1.6766
G02 X24.3514 Y75.4172 I-2.2011 J-0.4593
G02 X24.2697 Y75.4459 Z-0.3750 I0.7028 J2.1358
G03 X24.3514 Y75.4172 Z-0.4500 I0.7845 J2.1072
G02 X23.5559 Y79.2296 I0.7028 J2.1358
G02 X27.2553 Y78.0123 I1.4983 J-1.6766
G02 X24.3514 Y75.4172 I-2.2011 J-0.4593
G02 X24.2968 Y75.4360 Z-0.5000 I0.7028 J2.1358
G03 X24.3514 Y75.4172 Z-0.5500 I0.7574 J2.1171
G02 X23.5559 Y79.2296 I0.7028 J2.1358
G02 X27.2553 Y78.0123 I1.4983 J-1.6766
G02 X24.3514 Y75.4172 I-2.2011 J-0.4593
G00 Z5.0000


(Nr. 7: Ausschnitt 30)
G00 X59.3230 Y46.1168 Z5.0000
G00 Z0.5000
G01 Z0.0000 F20.000
G02 X59.2690 Y46.1845 Z-0.0750 I1.7301 J1.4358
G03 X59.3230 Y46.1168 Z-0.1500 I1.7841 J1.3681
G02 X62.7828 Y48.9890 I1.7301 J1.4358
G02 X61.0619 Y45.3056 I-1.7271 J-1.4368
G01 X61.0755 Y45.3053
G02 X59.3230 Y46.1168 I-0.0242 J2.2456
G02 X59.2690 Y46.1845 Z-0.2250 I1.7301 J1.4358
G03 X59.3230 Y46.1168 Z-0.3000 I1.7841 J1.3681
G02 X62.7828 Y48.9890 I1.7301 J1.4358
G02 X61.0619 Y45.3056 I-1.7271 J-1.4368
G01 X61.0755 Y45.3053
G02 X59.3230 Y46.1168 I-0.0242 J2.2456
G02 X59.2690 Y46.1845 Z-0.3750 I1.7301 J1.4358
G03 X59.3230 Y46.1168 Z-0.4500 I1.7841 J1.3681
G02 X62.7828 Y48.9890 I1.7301 J1.4358
G02 X61.0619 Y45.3056 I-1.7271 J-1.4368
G01 X61.0755 Y45.3053
G02 X59.3230 Y46.1168 I-0.0242 J2.2456
G02 X59.2867 Y46.1617 Z-0.5000 I1.7301 J1.4358
G03 X59.3230 Y46.1168 Z-0.5500 I1.7664 J1.3909
G02 X62.7828 Y48.9890 I1.7301 J1.4358
G02 X61.0619 Y45.3056 I-1.7271 J-1.4368
G01 X61.0755 Y45.3053
G02 X59.3230 Y46.1168 I-0.0242 J2.2456
G00 Z5.0000


(Nr. 8: Ausschnitt 31)
G00 X59.6677 Y75.7824 Z5.0000
G00 Z0.5000
G01 Z0.0000 F20.000
G02 X59.6004 Y75.8370 Z-0.0750 I1.3804 J1.7707
G03 X59.6677 Y75.7824 Z-0.1500 I1.4477 J1.7162
G02 X58.8071 Y77.6902 I1.3804 J1.7707
G01 X58.8066 Y77.6746
G02 X63.2992 Y77.4312 I2.2462 J-0.1238
G02 X59.6677 Y75.7824 I-2.2458 J0.1228
G02 X59.6004 Y75.8370 Z-0.2250 I1.3804 J1.7707
G03 X59.6677 Y75.7824 Z-0.3000 I1.4477 J1.7162
G02 X58.8071 Y77.6902 I1.3804 J1.7707
G01 X58.8066 Y77.6746
G02 X63.2992 Y77.4312 I2.2462 J-0.1238
G02 X59.6677 Y75.7824 I-2.2458 J0.1228
G02 X59.6004 Y75.8370 Z-0.3750 I1.3804 J1.7707
G03 X59.6677 Y75.7824 Z-0.4500 I1.4477 J1.7162
G02 X58.8071 Y77.6902 I1.3804 J1.7707
G01 X58.8066 Y77.6746
G02 X63.2992 Y77.4312 I2.2462 J-0.1238
G02 X59.6677 Y75.7824 I-2.2458 J0.1228
G02 X59.6226 Y75.8185 Z-0.5000 I1.3804 J1.7707
G03 X59.6677 Y75.7824 Z-0.5500 I1.4255 J1.7346
G02 X58.8071 Y77.6902 I1.3804 J1.7707
G01 X58.8066 Y77.6746
G02 X63.2992 Y77.4312 I2.2462 J-0.1238
G02 X59.6677 Y75.7824 I-2.2458 J0.1228
G00 Z5.0000


(Nr. 9: Ausschnitt 32)
G00 X86.1155 Y46.4091 Z5.0000
G00 Z0.5000
G01 Z0.0000 F20.000
G02 X86.0729 Y46.4845 Z-0.0750 I1.9374 J1.1438
G03 X86.1155 Y46.4091 Z-0.1500 I1.9800 J1.0684
G02 X88.0311 Y49.8026 I1.9374 J1.1438
G02 X90.0122 Y46.4469 I0.0218 J-2.2497
G02 X86.1155 Y46.4091 I-1.9592 J1.1059
G02 X86.0729 Y46.4845 Z-0.2250 I1.9374 J1.1438
G03 X86.1155 Y46.4091 Z-0.3000 I1.9800 J1.0684
G02 X88.0311 Y49.8026 I1.9374 J1.1438
G02 X90.0122 Y46.4469 I0.0218 J-2.2497
G02 X86.1155 Y46.4091 I-1.9592 J1.1059
G02 X86.0729 Y46.4845 Z-0.3750 I1.9374 J1.1438
G03 X86.1155 Y46.4091 Z-0.4500 I1.9800 J1.0684
G02 X88.0311 Y49.8026 I1.9374 J1.1438
G02 X90.0122 Y46.4469 I0.0218 J-2.2497
G02 X86.1155 Y46.4091 I-1.9592 J1.1059
G02 X86.0868 Y46.4592 Z-0.5000 I1.9374 J1.1438
G03 X86.1155 Y46.4091 Z-0.5500 I1.9661 J1.0937
G02 X88.0311 Y49.8026 I1.9374 J1.1438
G02 X90.0122 Y46.4469 I0.0218 J-2.2497
G02 X86.1155 Y46.4091 I-1.9592 J1.1059
G00 Z5.0000


(Nr. 10: Ausschnitt 33)
G00 X95.3226 Y76.1150 Z5.0000
G00 Z0.5000
G01 Z0.0000 F20.000
G02 X95.2685 Y76.1826 Z-0.0750 I1.7303 J1.4379
G03 X95.3226 Y76.1150 Z-0.1500 I1.7844 J1.3703
G02 X96.6728 Y79.7704 I1.7303 J1.4379
G02 X99.1634 Y76.7734 I0.3801 J-2.2175
G02 X95.3226 Y76.1150 I-2.1105 J0.7796
G02 X95.2685 Y76.1826 Z-0.2250 I1.7303 J1.4379
G03 X95.3226 Y76.1150 Z-0.3000 I1.7844 J1.3703
G02 X96.6728 Y79.7704 I1.7303 J1.4379
G02 X99.1634 Y76.7734 I0.3801 J-2.2175
G02 X95.3226 Y76.1150 I-2.1105 J0.7796
G02 X95.2685 Y76.1826 Z-0.3750 I1.7303 J1.4379
G03 X95.3226 Y76.1150 Z-0.4500 I1.7844 J1.3703
G02 X96.6728 Y79.7704 I1.7303 J1.4379
G02 X99.1634 Y76.7734 I0.3801 J-2.2175
G02 X95.3226 Y76.1150 I-2.1105 J0.7796
G02 X95.2862 Y76.1598 Z-0.5000 I1.7303 J1.4379
G03 X95.3226 Y76.1150 Z-0.5500 I1.7667 J1.3931
G02 X96.6728 Y79.7704 I1.7303 J1.4379
G02 X99.1634 Y76.7734 I0.3801 J-2.2175
G02 X95.3226 Y76.1150 I-2.1105 J0.7796
G00 Z5.0000


(Nr. 11: Ausschnitt 34)
G00 X104.0299 Y46.5694 Z5.0000
G00 Z0.5000
G01 Z0.0000 F20.000
G02 X103.9936 Y46.6480 Z-0.0750 I2.0214 J0.9831
G03 X104.0299 Y46.5694 Z-0.1500 I2.0577 J0.9045
G02 X106.0440 Y49.8002 I2.0214 J0.9831
G01 X106.0244 Y49.8007
G02 X105.9302 Y45.3090 I0.0301 J-2.2475
G02 X104.0299 Y46.5694 I0.1219 J2.2466
G02 X103.9936 Y46.6480 Z-0.2250 I2.0214 J0.9831
G03 X104.0299 Y46.5694 Z-0.3000 I2.0577 J0.9045
G02 X106.0440 Y49.8002 I2.0214 J0.9831
G01 X106.0244 Y49.8007
G02 X105.9302 Y45.3090 I0.0301 J-2.2475
G02 X104.0299 Y46.5694 I0.1219 J2.2466
G02 X103.9936 Y46.6480 Z-0.3750 I2.0214 J0.9831
G03 X104.0299 Y46.5694 Z-0.4500 I2.0577 J0.9045
G02 X106.0440 Y49.8002 I2.0214 J0.9831
G01 X106.0244 Y49.8007
G02 X105.9302 Y45.3090 I0.0301 J-2.2475
G02 X104.0299 Y46.5694 I0.1219 J2.2466
G02 X104.0053 Y46.6217 Z-0.5000 I2.0214 J0.9831
G03 X104.0299 Y46.5694 Z-0.5500 I2.0459 J0.9308
G02 X106.0440 Y49.8002 I2.0214 J0.9831
G01 X106.0244 Y49.8007
G02 X105.9302 Y45.3090 I0.0301 J-2.2475
G02 X104.0299 Y46.5694 I0.1219 J2.2466
G00 Z5.0000


(Nr. 12: Ausschnitt 35)
G00 X121.9807 Y46.6768 Z5.0000
G00 Z0.5000
G01 Z0.0000 F20.000
G02 X121.9485 Y46.7572 Z-0.0750 I2.0722 J0.8761
G03 X121.9807 Y46.6768 Z-0.1500 I2.1044 J0.7957
G02 X124.3303 Y49.7856 I2.0722 J0.8761
G02 X125.8478 Y46.1964 I-0.2774 J-2.2327
G02 X121.9807 Y46.6768 I-1.7949 J1.3565
G02 X121.9485 Y46.7572 Z-0.2250 I2.0722 J0.8761
G03 X121.9807 Y46.6768 Z-0.3000 I2.1044 J0.7957
G02 X124.3303 Y49.7856 I2.0722 J0.8761
G02 X125.8478 Y46.1964 I-0.2774 J-2.2327
G02 X121.9807 Y46.6768 I-1.7949 J1.3565
G02 X121.9485 Y46.7572 Z-0.3750 I2.0722 J0.8761
G03 X121.9807 Y46.6768 Z-0.4500 I2.1044 J0.7957
G02 X124.3303 Y49.7856 I2.0722 J0.8761
G02 X125.8478 Y46.1964 I-0.2774 J-2.2327
G02 X121.9807 Y46.6768 I-1.7949 J1.3565
G02 X121.9589 Y46.7302 Z-0.5000 I2.0722 J0.8761
G03 X121.9807 Y46.6768 Z-0.5500 I2.0940 J0.8227
G02 X124.3303 Y49.7856 I2.0722 J0.8761
G02 X125.8478 Y46.1964 I-0.2774 J-2.2327
G02 X121.9807 Y46.6768 I-1.7949 J1.3565
G00 Z5.0000


(Nr. 13: Ausschnitt 37)
G00 X131.1457 Y76.3588 Z5.0000
G00 Z0.5000
G01 Z0.0000 F20.000
G02 X131.1012 Y76.4331 Z-0.0750 I1.9073 J1.1938
G03 X131.1457 Y76.3588 Z-0.1500 I1.9518 J1.1195
G02 X132.9728 Y79.8013 I1.9073 J1.1938
G02 X135.0406 Y76.4978 I0.0802 J-2.2487
G02 X131.1457 Y76.3588 I-1.9875 J1.0549
G02 X131.1012 Y76.4331 Z-0.2250 I1.9073 J1.1938
G03 X131.1457 Y76.3588 Z-0.3000 I1.9518 J1.1195
G02 X132.9728 Y79.8013 I1.9073 J1.1938
G02 X135.0406 Y76.4978 I0.0802 J-2.2487
G02 X131.1457 Y76.3588 I-1.9875 J1.0549
G02 X131.1012 Y76.4331 Z-0.3750 I1.9073 J1.1938
G03 X131.1457 Y76.3588 Z-0.4500 I1.9518 J1.1195
G02 X132.9728 Y79.8013 I1.9073 J1.1938
G02 X135.0406 Y76.4978 I0.0802 J-2.2487
G02 X131.1457 Y76.3588 I-1.9875 J1.0549
G02 X131.1157 Y76.4082 Z-0.5000 I1.9073 J1.1938
G03 X131.1457 Y76.3588 Z-0.5500 I1.9373 J1.1445
G02 X132.9728 Y79.8013 I1.9073 J1.1938
G02 X135.0406 Y76.4978 I0.0802 J-2.2487
G02 X131.1457 Y76.3588 I-1.9875 J1.0549
G00 Z5.0000


(Nr. 14: Ausschnitt 36)
G00 X139.9369 Y46.7885 Z5.0000
G00 Z0.5000
G01 Z0.0000 F20.000
G02 X139.9091 Y46.8705 Z-0.0750 I2.1160 J0.7644
G03 X139.9369 Y46.7885 Z-0.1500 I2.1439 J0.6824
G02 X142.4490 Y49.7676 I2.1160 J0.7644
G02 X143.7729 Y46.1026 I-0.3960 J-2.2147
G02 X139.9369 Y46.7885 I-1.7200 J1.4503
G02 X139.9091 Y46.8705 Z-0.2250 I2.1160 J0.7644
G03 X139.9369 Y46.7885 Z-0.3000 I2.1439 J0.6824
G02 X142.4490 Y49.7676 I2.1160 J0.7644
G02 X143.7729 Y46.1026 I-0.3960 J-2.2147
G02 X139.9369 Y46.7885 I-1.7200 J1.4503
G02 X139.9091 Y46.8705 Z-0.3750 I2.1160 J0.7644
G03 X139.9369 Y46.7885 Z-0.4500 I2.1439 J0.6824
G02 X142.4490 Y49.7676 I2.1160 J0.7644
G02 X143.7729 Y46.1026 I-0.3960 J-2.2147
G02 X139.9369 Y46.7885 I-1.7200 J1.4503
G02 X139.9180 Y46.8431 Z-0.5000 I2.1160 J0.7644
G03 X139.9369 Y46.7885 Z-0.5500 I2.1349 J0.7098
G02 X142.4490 Y49.7676 I2.1160 J0.7644
G02 X143.7729 Y46.1026 I-0.3960 J-2.2147
G02 X139.9369 Y46.7885 I-1.7200 J1.4503
G00 Z5.0000


(Nr. 15: Ausschnitt 38)
G00 X141.8230 Y54.4575 Z5.0000
G00 Z0.5000
G01 Z0.0000 F20.000
G02 X141.8046 Y54.5417 Z-0.0750 I0.2302 J0.0946
G03 X141.8230 Y54.4575 Z-0.1500 I0.2487 J0.0104
G02 X142.2828 Y54.6483 I0.2302 J0.0946
G02 X141.8230 Y54.4575 I-0.2302 J-0.0946
G02 X141.8046 Y54.5417 Z-0.2250 I0.2302 J0.0946
G03 X141.8230 Y54.4575 Z-0.3000 I0.2487 J0.0104
G02 X142.2828 Y54.6483 I0.2302 J0.0946
G02 X141.8230 Y54.4575 I-0.2302 J-0.0946
G02 X141.8046 Y54.5417 Z-0.3750 I0.2302 J0.0946
G03 X141.8230 Y54.4575 Z-0.4500 I0.2487 J0.0104
G02 X142.2828 Y54.6483 I0.2302 J0.0946
G02 X141.8230 Y54.4575 I-0.2302 J-0.0946
G02 X141.8075 Y54.5130 Z-0.5000 I0.2302 J0.0946
G03 X141.8230 Y54.4575 Z-0.5500 I0.2458 J0.0391
G02 X142.2828 Y54.6483 I0.2302 J0.0946
G02 X141.8230 Y54.4575 I-0.2302 J-0.0946
G00 Z5.0000


(Nr. 16: Ausschnitt 39)
G00 X123.8293 Y54.4426 Z5.0000
G00 Z0.5000
G01 Z0.0000 F20.000
G02 X123.8051 Y54.5253 Z-0.0750 I0.2236 J0.1103
G03 X123.8293 Y54.4426 Z-0.1500 I0.2478 J0.0276
G02 X124.2825 Y54.6502 I0.2236 J0.1103
G02 X123.8293 Y54.4426 I-0.2296 J-0.0973
G02 X123.8051 Y54.5253 Z-0.2250 I0.2236 J0.1103
G03 X123.8293 Y54.4426 Z-0.3000 I0.2478 J0.0276
G02 X124.2825 Y54.6502 I0.2236 J0.1103
G02 X123.8293 Y54.4426 I-0.2296 J-0.0973
G02 X123.8051 Y54.5253 Z-0.3750 I0.2236 J0.1103
G03 X123.8293 Y54.4426 Z-0.4500 I0.2478 J0.0276
G02 X124.2825 Y54.6502 I0.2236 J0.1103
G02 X123.8293 Y54.4426 I-0.2296 J-0.0973
G02 X123.8100 Y54.4968 Z-0.5000 I0.2236 J0.1103
G03 X123.8293 Y54.4426 Z-0.5500 I0.2430 J0.0561
G02 X124.2825 Y54.6502 I0.2236 J0.1103
G02 X123.8293 Y54.4426 I-0.2296 J-0.0973
G00 Z5.0000


(Nr. 17: Ausschnitt 40)
G00 X108.8355 Y54.4324 Z5.0000
G00 Z0.5000
G01 Z0.0000 F20.000
G02 X108.8076 Y54.5139 Z-0.0750 I0.2178 J0.1200
G03 X108.8355 Y54.4324 Z-0.1500 I0.2456 J0.0385
G02 X109.2704 Y54.6735 I0.2178 J0.1200
G02 X108.8355 Y54.4324 I-0.2178 J-0.1200
G02 X108.8076 Y54.5139 Z-0.2250 I0.2178 J0.1200
G03 X108.8355 Y54.4324 Z-0.3000 I0.2456 J0.0385
G02 X109.2704 Y54.6735 I0.2178 J0.1200
G02 X108.8355 Y54.4324 I-0.2178 J-0.1200
G02 X108.8076 Y54.5139 Z-0.3750 I0.2178 J0.1200
G03 X108.8355 Y54.4324 Z-0.4500 I0.2456 J0.0385
G02 X109.2704 Y54.6735 I0.2178 J0.1200
G02 X108.8355 Y54.4324 I-0.2178 J-0.1200
G02 X108.8137 Y54.4857 Z-0.5000 I0.2178 J0.1200
G03 X108.8355 Y54.4324 Z-0.5500 I0.2395 J0.0667
G02 X109.2704 Y54.6735 I0.2178 J0.1200
G02 X108.8355 Y54.4324 I-0.2178 J-0.1200
G00 Z5.0000


(Nr. 18: Ausschnitt 41)
G00 X102.8358 Y54.4302 Z5.0000
G00 Z0.5000
G01 Z0.0000 F20.000
G02 X102.8070 Y54.5114 Z-0.0750 I0.2171 J0.1227
G03 X102.8358 Y54.4302 Z-0.1500 I0.2459 J0.0415
G02 X103.0552 Y54.8023 I0.2171 J0.1227
G02 X103.2677 Y54.4263 I-0.0022 J-0.2494
G02 X102.8358 Y54.4302 I-0.2148 J0.1266
G02 X102.8070 Y54.5114 Z-0.2250 I0.2171 J0.1227
G03 X102.8358 Y54.4302 Z-0.3000 I0.2459 J0.0415
G02 X103.0552 Y54.8023 I0.2171 J0.1227
G02 X103.2677 Y54.4263 I-0.0022 J-0.2494
G02 X102.8358 Y54.4302 I-0.2148 J0.1266
G02 X102.8070 Y54.5114 Z-0.3750 I0.2171 J0.1227
G03 X102.8358 Y54.4302 Z-0.4500 I0.2459 J0.0415
G02 X103.0552 Y54.8023 I0.2171 J0.1227
G02 X103.2677 Y54.4263 I-0.0022 J-0.2494
G02 X102.8358 Y54.4302 I-0.2148 J0.1266
G02 X102.8135 Y54.4833 Z-0.5000 I0.2171 J0.1227
G03 X102.8358 Y54.4302 Z-0.5500 I0.2394 J0.0696
G02 X103.0552 Y54.8023 I0.2171 J0.1227
G02 X103.2677 Y54.4263 I-0.0022 J-0.2494
G02 X102.8358 Y54.4302 I-0.2148 J0.1266
G00 Z5.0000


(Nr. 19: Ausschnitt 42)
G00 X93.8430 Y54.4183 Z5.0000
G00 Z0.5000
G01 Z0.0000 F20.000
G02 X93.8097 Y54.4977 Z-0.0750 I0.2099 J0.1346
G03 X93.8430 Y54.4183 Z-0.1500 I0.2432 J0.0552
G02 X94.0413 Y54.8020 I0.2099 J0.1346
G02 X94.2745 Y54.4385 I0.0117 J-0.2491
G02 X93.8430 Y54.4183 I-0.2216 J0.1144
G02 X93.8097 Y54.4977 Z-0.2250 I0.2099 J0.1346
G03 X93.8430 Y54.4183 Z-0.3000 I0.2432 J0.0552
G02 X94.0413 Y54.8020 I0.2099 J0.1346
G02 X94.2745 Y54.4385 I0.0117 J-0.2491
G02 X93.8430 Y54.4183 I-0.2216 J0.1144
G02 X93.8097 Y54.4977 Z-0.3750 I0.2099 J0.1346
G03 X93.8430 Y54.4183 Z-0.4500 I0.2432 J0.0552
G02 X94.0413 Y54.8020 I0.2099 J0.1346
G02 X94.2745 Y54.4385 I0.0117 J-0.2491
G02 X93.8430 Y54.4183 I-0.2216 J0.1144
G02 X93.8177 Y54.4700 Z-0.5000 I0.2099 J0.1346
G03 X93.8430 Y54.4183 Z-0.5500 I0.2352 J0.0829
G02 X94.0413 Y54.8020 I0.2099 J0.1346
G02 X94.2745 Y54.4385 I0.0117 J-0.2491
G02 X93.8430 Y54.4183 I-0.2216 J0.1144
G00 Z5.0000


(Nr. 20: Ausschnitt 43)
G00 X87.8429 Y54.4201 Z5.0000
G00 Z0.5000
G01 Z0.0000 F20.000
G02 X87.8103 Y54.4999 Z-0.0750 I0.2103 J0.1324
G03 X87.8429 Y54.4201 Z-0.1500 I0.2429 J0.0526
G02 X88.2630 Y54.6857 I0.2103 J0.1324
G02 X87.8429 Y54.4201 I-0.2103 J-0.1324
G02 X87.8103 Y54.4999 Z-0.2250 I0.2103 J0.1324
G03 X87.8429 Y54.4201 Z-0.3000 I0.2429 J0.0526
G02 X88.2630 Y54.6857 I0.2103 J0.1324
G02 X87.8429 Y54.4201 I-0.2103 J-0.1324
G02 X87.8103 Y54.4999 Z-0.3750 I0.2103 J0.1324
G03 X87.8429 Y54.4201 Z-0.4500 I0.2429 J0.0526
G02 X88.2630 Y54.6857 I0.2103 J0.1324
G02 X87.8429 Y54.4201 I-0.2103 J-0.1324
G02 X87.8181 Y54.4721 Z-0.5000 I0.2103 J0.1324
G03 X87.8429 Y54.4201 Z-0.5500 I0.2351 J0.0804
G02 X88.2630 Y54.6857 I0.2103 J0.1324
G02 X87.8429 Y54.4201 I-0.2103 J-0.1324
G00 Z5.0000


(Nr. 21: Ausschnitt 44)
G00 X81.8511 Y54.4065 Z5.0000
G00 Z0.5000
G01 Z0.0000 F20.000
G02 X81.8133 Y54.4839 Z-0.0750 I0.2018 J0.1464
G03 X81.8511 Y54.4065 Z-0.1500 I0.2396 J0.0690
G02 X82.0270 Y54.8009 I0.2018 J0.1464
G02 X82.2807 Y54.4513 I0.0259 J-0.2480
G02 X81.8511 Y54.4065 I-0.2277 J0.1016
G02 X81.8133 Y54.4839 Z-0.2250 I0.2018 J0.1464
G03 X81.8511 Y54.4065 Z-0.3000 I0.2396 J0.0690
G02 X82.0270 Y54.8009 I0.2018 J0.1464
G02 X82.2807 Y54.4513 I0.0259 J-0.2480
G02 X81.8511 Y54.4065 I-0.2277 J0.1016
G02 X81.8133 Y54.4839 Z-0.3750 I0.2018 J0.1464
G03 X81.8511 Y54.4065 Z-0.4500 I0.2396 J0.0690
G02 X82.0270 Y54.8009 I0.2018 J0.1464
G02 X82.2807 Y54.4513 I0.0259 J-0.2480
G02 X81.8511 Y54.4065 I-0.2277 J0.1016
G02 X81.8229 Y54.4567 Z-0.5000 I0.2018 J0.1464
G03 X81.8511 Y54.4065 Z-0.5500 I0.2300 J0.0962
G02 X82.0270 Y54.8009 I0.2018 J0.1464
G02 X82.2807 Y54.4513 I0.0259 J-0.2480
G02 X81.8511 Y54.4065 I-0.2277 J0.1016
G00 Z5.0000
G00 X0.0000 Y0.0000

M05
M30
