(Projekt DIYBody - Frontplatte_EMS_grosse_schrift)
(Erstellt mit Estlcam Version 11 Build 11,245)
(Laufzeit ca. 00:04:15 Stunden)

(Benoetigte Werkzeuge:)
(Gravierstichel)

G90
G91.1
M03 S20000
G00 Z5.0000


(Nr. 1: Gravur 257)
G00 X-2.4526 Y0.0000
G00 Z0.5000
G01 Z0.0000 F20.000 S20000
G01 X-2.4238 Z-0.0250
G01 X-2.4526 Z-0.0500
G01 X0.0000
G01 Y-2.5532
G00 Z5.0000


(Nr. 2: Gravur 154)
G00 X19.9101 Y36.2379 Z5.0000
G00 Z0.5000
G01 Z0.0000 F20.000
G01 Y36.2091 Z-0.0250
G01 Y36.2379 Z-0.0500
G01 Y36.0765
G01 X20.0501 Y35.9367
G01 X21.7598
G01 X21.9202 Y36.0980
G01 Y36.7952
G01 X21.7598 Y36.9590
G01 X20.0705
G01 X19.9101 Y37.1297
G01 Y37.7747
G01 X20.1047 Y37.9692
G01 X21.7803
G01 X21.9407 Y37.8088
G01 Y37.6348
G00 Z5.0000


(Nr. 3: Gravur 155)
G00 X22.4663 Y36.0550 Z5.0000
G00 Z0.5000
G01 Z0.0000 F20.000
G01 X22.4869 Y36.0348 Z-0.0250
G01 X22.4663 Y36.0550 Z-0.0500
G01 X22.6198 Y35.9045
G01 X23.9201
G01 X24.0600 Y36.0441
G01 Y37.3652
G01 X23.9099 Y37.5051
G01 X22.4458
G01 Y35.0752
G00 Z5.0000


(Nr. 4: Gravur 156)
G00 X24.4252 Y36.7338 Z5.0000
G00 Z0.5000
G01 Z0.0000 F20.000
G01 X24.4541 Z-0.0250
G01 X24.4252 Z-0.0500
G01 X26.0462
G01 Y37.3549
G01 X25.8654 Y37.5392
G01 X24.6197
G01 X24.4354 Y37.3447
G01 Y36.0980
G01 X24.6061 Y35.9152
G01 X26.1350
G00 Z5.0000


(Nr. 5: Gravur 157)
G00 X28.2406 Y35.9152 Z5.0000
G00 Z0.5000
G01 Z0.0000 F20.000
G01 X28.2118 Z-0.0250
G01 X28.2406 Z-0.0500
G01 X26.7117
G01 X26.5411 Y36.0980
G01 Y37.3447
G01 X26.7254 Y37.5392
G01 X27.9710
G01 X28.1519 Y37.3549
G01 Y36.7338
G01 X26.5308
G00 Z5.0000


(Nr. 6: Gravur 158)
G00 X30.1825 Y37.3549 Z5.0000
G00 Z0.5000
G01 Z0.0000 F20.000
G01 X30.1614 Y37.3746 Z-0.0250
G01 X30.1825 Y37.3549 Z-0.0500
G01 X30.0221 Y37.5051
G01 X28.7116
G01 X28.5287 Y37.3242
G01 Y36.1301
G01 X28.7218 Y35.9260
G01 X30.1961
G01 Y38.2047
G00 Z5.0000


(Nr. 7: Gravur 153)
G00 X30.9308 Y39.4619 Z5.0000
G00 Z0.5000
G01 Z0.0000 F20.000
G01 X30.9138 Y39.4852 Z-0.0250
G01 X30.9308 Y39.4619 Z-0.0500
G01 X28.5797 Y42.6977
G00 Z5.0000


(Nr. 8: Gravur 152)
G00 X33.1432 Y41.6738 Z5.0000
G00 Z0.5000
G01 Z0.0000 F20.000
G01 X33.1199 Y41.6908 Z-0.0250
G01 X33.1432 Y41.6738 Z-0.0500
G01 X29.9071 Y44.0259
G00 Z5.0000


(Nr. 9: Gravur 151)
G00 X34.5635 Y44.4625 Z5.0000
G00 Z0.5000
G01 Z0.0000 F20.000
G01 X34.5360 Y44.4714 Z-0.0250
G01 X34.5635 Y44.4625 Z-0.0500
G01 X30.7593 Y45.6981
G00 Z5.0000


(Nr. 10: Gravur 150)
G00 X35.0530 Y47.5528 Z5.0000
G00 Z0.5000
G01 Z0.0000 F20.000
G01 X35.0241 Z-0.0250
G01 X35.0530 Z-0.0500
G01 X31.0530
G00 Z5.0000


(Nr. 11: Gravur 148)
G00 X29.9071 Y51.0797 Z5.0000
G00 Z0.5000
G01 Z0.0000 F20.000
G01 X29.9304 Y51.0967 Z-0.0250
G01 X29.9071 Y51.0797 Z-0.0500
G01 X33.1432 Y53.4319
G00 Z5.0000


(Nr. 12: Gravur 147)
G00 X30.9308 Y55.6438 Z5.0000
G00 Z0.5000
G01 Z0.0000 F20.000
G01 X30.9138 Y55.6204 Z-0.0250
G01 X30.9308 Y55.6438 Z-0.0500
G01 X28.5797 Y52.4079
G00 Z5.0000


(Nr. 13: Gravur 146)
G00 X26.9070 Y53.2599 Z5.0000
G00 Z0.5000
G01 Z0.0000 F20.000
G01 X26.9159 Y53.2873 Z-0.0250
G01 X26.9070 Y53.2599 Z-0.0500
G01 X28.1431 Y57.0646
G00 Z5.0000


(Nr. 14: Gravur 145)
G00 X25.0530 Y57.5541 Z5.0000
G00 Z0.5000
G01 Z0.0000 F20.000
G01 Y57.5252 Z-0.0250
G01 Y57.5541 Z-0.0500
G01 Y53.5536
G00 Z5.0000


(Nr. 15: Gravur 144)
G00 X23.1988 Y53.2599 Z5.0000
G00 Z0.5000
G01 Z0.0000 F20.000
G01 X23.1899 Y53.2873 Z-0.0250
G01 X23.1988 Y53.2599 Z-0.0500
G01 X21.9627 Y57.0646
G00 Z5.0000


(Nr. 16: Gravur 143)
G00 X21.5262 Y52.4079 Z5.0000
G00 Z0.5000
G01 Z0.0000 F20.000
G01 X21.5092 Y52.4313 Z-0.0250
G01 X21.5262 Y52.4079 Z-0.0500
G01 X19.1751 Y55.6438
G00 Z5.0000


(Nr. 17: Gravur 142)
G00 X20.1987 Y51.0797 Z5.0000
G00 Z0.5000
G01 Z0.0000 F20.000
G01 X20.1754 Y51.0967 Z-0.0250
G01 X20.1987 Y51.0797 Z-0.0500
G01 X16.9626 Y53.4319
G00 Z5.0000


(Nr. 18: Gravur 141)
G00 X19.3465 Y49.4076 Z5.0000
G00 Z0.5000
G01 Z0.0000 F20.000
G01 X19.3191 Y49.4165 Z-0.0250
G01 X19.3465 Y49.4076 Z-0.0500
G01 X15.5423 Y50.6432
G00 Z5.0000


(Nr. 19: Gravur 140)
G00 X19.0528 Y47.5528 Z5.0000
G00 Z0.5000
G01 Z0.0000 F20.000
G01 X19.0240 Z-0.0250
G01 X19.0528 Z-0.0500
G01 X15.0529
G00 Z5.0000


(Nr. 20: Gravur 139)
G00 X19.3465 Y45.6981 Z5.0000
G00 Z0.5000
G01 Z0.0000 F20.000
G01 X19.3191 Y45.6892 Z-0.0250
G01 X19.3465 Y45.6981 Z-0.0500
G01 X15.5423 Y44.4625
G00 Z5.0000


(Nr. 21: Gravur 138)
G00 X16.9626 Y41.6738 Z5.0000
G00 Z0.5000
G01 Z0.0000 F20.000
G01 X16.9860 Y41.6908 Z-0.0250
G01 X16.9626 Y41.6738 Z-0.0500
G01 X20.1987 Y44.0259
G00 Z5.0000


(Nr. 22: Gravur 137)
G00 X21.5262 Y42.6977 Z5.0000
G00 Z0.5000
G01 Z0.0000 F20.000
G01 X21.5092 Y42.6744 Z-0.0250
G01 X21.5262 Y42.6977 Z-0.0500
G01 X19.1751 Y39.4619
G00 Z5.0000


(Nr. 23: Gravur 167)
G00 X16.5140 Y39.4088 Z5.0000
G00 Z0.5000
G01 Z0.0000 F20.000
G01 X16.5429 Z-0.0250
G01 X16.5140 Z-0.0500
G01 X17.8784
G00 Z5.0000


(Nr. 24: Gravur 166)
G00 X32.3304 Y39.4137 Z5.0000
G00 Z0.5000
G01 Z0.0000 F20.000
G01 X32.3593 Z-0.0250
G01 X32.3304 Z-0.0500
G01 X34.0602
G00 Z5.0000


(Nr. 25: Gravur 165)
G00 X33.1882 Y40.2756 Z5.0000
G00 Z0.5000
G01 Z0.0000 F20.000
G01 Y40.2467 Z-0.0250
G01 Y40.2756 Z-0.0500
G01 Y38.5423
G00 Z5.0000


(Nr. 26: Gravur 159)
G00 X32.4117 Y37.5549 Z5.0000
G00 Z0.5000
G01 Z0.0000 F20.000
G01 X32.3929 Y37.5329 Z-0.0250
G01 X32.4117 Y37.5549 Z-0.0500
G01 X31.0700 Y35.9851
G00 Z5.0000


(Nr. 27: Gravur 160)
G00 X34.3024 Y36.7982 Z5.0000
G00 Z0.5000
G01 Z0.0000 F20.000
G01 X34.2735 Z-0.0250
G01 X34.3024 Z-0.0500
G01 X32.9862
G01 Y35.9120
G01 X34.6300
G00 Z5.0000


(Nr. 28: Gravur 161)
G00 X34.6213 Y37.6274 Z5.0000
G00 Z0.5000
G01 Z0.0000 F20.000
G01 X34.5924 Z-0.0250
G01 X34.6213 Z-0.0500
G01 X32.9862
G01 Y35.9120
G01 X34.6300
G00 Z5.0000


(Nr. 29: Gravur 162)
G00 X36.3466 Y35.9120 Z5.0000
G00 Z0.5000
G01 Z0.0000 F20.000
G01 Y35.9409 Z-0.0250
G01 Y35.9120 Z-0.0500
G01 Y37.1998
G01 X36.2103 Y37.3360
G01 X34.9695
G01 Y35.9210
G00 Z5.0000


(Nr. 30: Gravur 164)
G00 X38.4012 Y35.3804 Z5.0000
G00 Z0.5000
G01 Z0.0000 F20.000
G01 X38.3724 Z-0.0250
G01 X38.4012 Z-0.0500
G01 X32.9859
G00 Z5.0000


(Nr. 31: Gravur 163)
G00 X38.4016 Y37.3549 Z5.0000
G00 Z0.5000
G01 Z0.0000 F20.000
G01 X38.3872 Y37.3298 Z-0.0250
G01 X38.4016 Y37.3549 Z-0.0500
G01 X37.5261 Y35.8297
G01 X36.6941 Y37.3375
G00 Z5.0000


(Nr. 32: Gravur 149)
G00 X34.5635 Y50.6432 Z5.0000
G00 Z0.5000
G01 Z0.0000 F20.000
G01 X34.5360 Y50.6342 Z-0.0250
G01 X34.5635 Y50.6432 Z-0.0500
G01 X30.7593 Y49.4076
G00 Z5.0000


(Nr. 33: Gravur 46)
G00 X37.1595 Y61.6523 Z5.0000
G00 Z0.5000
G01 Z0.0000 F20.000
G01 X37.1307 Z-0.0250
G01 X37.1595 Z-0.0500
G01 X15.0488
G01 X14.9745 Y61.5498
G03 X14.0529 Y60.5529 I0.0785 J-0.9969
G01 X14.0530 Y56.5540
G00 Z5.0000


(Nr. 34: Gravur 31)
G00 X17.8784 Y69.4101 Z5.0000
G00 Z0.5000
G01 Z0.0000 F20.000
G01 X17.8496 Z-0.0250
G01 X17.8784 Z-0.0500
G01 X16.5140
G00 Z5.0000


(Nr. 35: Gravur 2)
G00 X16.9626 Y71.6749 Z5.0000
G00 Z0.5000
G01 Z0.0000 F20.000
G01 X16.9860 Y71.6919 Z-0.0250
G01 X16.9626 Y71.6749 Z-0.0500
G01 X20.1987 Y74.0270
G00 Z5.0000


(Nr. 36: Gravur 4)
G00 X19.0528 Y77.5539 Z5.0000
G00 Z0.5000
G01 Z0.0000 F20.000
G01 X19.0240 Z-0.0250
G01 X19.0528 Z-0.0500
G01 X15.0529
G00 Z5.0000


(Nr. 37: Gravur 5)
G00 X15.5423 Y80.6432 Z5.0000
G00 Z0.5000
G01 Z0.0000 F20.000
G01 X15.5698 Y80.6343 Z-0.0250
G01 X15.5423 Y80.6432 Z-0.0500
G01 X19.3465 Y79.4060
G00 Z5.0000


(Nr. 38: Gravur 6)
G00 X20.1987 Y81.0795 Z5.0000
G00 Z0.5000
G01 Z0.0000 F20.000
G01 X20.1754 Y81.0965 Z-0.0250
G01 X20.1987 Y81.0795 Z-0.0500
G01 X16.9626 Y83.4309
G00 Z5.0000


(Nr. 39: Gravur 7)
G00 X21.5262 Y82.4069 Z5.0000
G00 Z0.5000
G01 Z0.0000 F20.000
G01 X21.5092 Y82.4303 Z-0.0250
G01 X21.5262 Y82.4069 Z-0.0500
G01 X19.1751 Y85.6430
G00 Z5.0000


(Nr. 40: Gravur 8)
G00 X21.9627 Y87.0636 Z5.0000
G00 Z0.5000
G01 Z0.0000 F20.000
G01 X21.9716 Y87.0361 Z-0.0250
G01 X21.9627 Y87.0636 Z-0.0500
G01 X23.1988 Y83.2591
G00 Z5.0000


(Nr. 41: Gravur 9)
G00 X25.0530 Y83.5528 Z5.0000
G00 Z0.5000
G01 Z0.0000 F20.000
G01 Y83.5817 Z-0.0250
G01 Y83.5528 Z-0.0500
G01 Y87.5528
G00 Z5.0000


(Nr. 42: Gravur 22)
G00 X24.6308 Y90.0012 Z5.0000
G00 Z0.5000
G01 Z0.0000 F20.000
G01 X24.6184 Y90.0273 Z-0.0250
G01 X24.6308 Y90.0012 Z-0.0500
G01 X24.6166 Y90.0311
G01 Y92.4522
G00 Z5.0000


(Nr. 43: Gravur 23)
G00 X24.5407 Y93.1063 Z5.0000
G00 Z0.5000
G01 Z0.0000 F20.000
G01 Y93.1351 Z-0.0250
G01 Y93.1063 Z-0.0500
G01 Y93.3006
G01 X24.7350
G01 Y93.1063
G01 X24.5407
G00 Z5.0000


(Nr. 44: Gravur 24)
G00 X25.2422 Y93.2404 Z5.0000
G00 Z0.5000
G01 Z0.0000 F20.000
G01 Y93.2115 Z-0.0250
G01 Y93.2404 Z-0.0500
G01 Y90.3302
G01 X25.5077 Y90.0614
G01 X25.9864
G00 Z5.0000


(Nr. 45: Gravur 25)
G00 X27.0907 Y90.0614 Z5.0000
G00 Z0.5000
G01 Z0.0000 F20.000
G01 X27.0619 Z-0.0250
G01 X27.0907 Z-0.0500
G01 X26.6120
G01 X26.3466 Y90.3302
G01 Y93.2404
G00 Z5.0000


(Nr. 46: Gravur 26)
G00 X27.3609 Y92.2877 Z5.0000
G00 Z0.5000
G01 Z0.0000 F20.000
G01 X27.3898 Z-0.0250
G01 X27.3609 Z-0.0500
G01 X29.4654
G01 X29.7166 Y92.0460
G01 Y90.0614
G01 X27.7022
G01 X27.4652 Y90.3003
G01 Y91.1502
G01 X29.6881
G00 Z5.0000


(Nr. 47: Gravur 27)
G00 X31.6125 Y90.0614 Z5.0000
G00 Z0.5000
G01 Z0.0000 F20.000
G01 X31.5836 Z-0.0250
G01 X31.6125 Z-0.0500
G01 X30.5413
G01 X30.3754 Y90.2406
G01 Y93.2248
G00 Z5.0000


(Nr. 48: Gravur 28)
G00 X31.6125 Y92.2389 Z5.0000
G00 Z0.5000
G01 Z0.0000 F20.000
G01 X31.5836 Z-0.0250
G01 X31.6125 Z-0.0500
G01 X30.3754
G01 Y93.2248
G00 Z5.0000


(Nr. 49: Gravur 29)
G00 X32.1054 Y91.9891 Z5.0000
G00 Z0.5000
G01 Z0.0000 F20.000
G01 Y91.9602 Z-0.0250
G01 Y91.9891 Z-0.0500
G01 Y90.3302
G01 X32.3566 Y90.0614
G01 X34.0914
G01 X34.3284 Y90.3003
G01 Y92.0934
G01 X34.1198 Y92.3161
G01 X32.4040
G01 X32.1054 Y91.9891
G00 Z5.0000


(Nr. 50: Gravur 30)
G00 X35.0156 Y90.0614 Z5.0000
G00 Z0.5000
G01 Z0.0000 F20.000
G01 Y90.0903 Z-0.0250
G01 Y90.0614 Z-0.0500
G01 Y92.1953
G01 X35.2716 Y92.4655
G01 X36.7788
G00 Z5.0000


(Nr. 51: Gravur 10)
G00 X28.1431 Y87.0636 Z5.0000
G00 Z0.5000
G01 Z0.0000 F20.000
G01 X28.1342 Y87.0361 Z-0.0250
G01 X28.1431 Y87.0636 Z-0.0500
G01 X26.9070 Y83.2591
G00 Z5.0000


(Nr. 52: Gravur 11)
G00 X28.5797 Y82.4069 Z5.0000
G00 Z0.5000
G01 Z0.0000 F20.000
G01 X28.5966 Y82.4303 Z-0.0250
G01 X28.5797 Y82.4069 Z-0.0500
G01 X30.9308 Y85.6430
G00 Z5.0000


(Nr. 53: Gravur 12)
G00 X29.9071 Y81.0795 Z5.0000
G00 Z0.5000
G01 Z0.0000 F20.000
G01 X29.9304 Y81.0965 Z-0.0250
G01 X29.9071 Y81.0795 Z-0.0500
G01 X33.1432 Y83.4309
G00 Z5.0000


(Nr. 54: Gravur 13)
G00 X34.5635 Y80.6432 Z5.0000
G00 Z0.5000
G01 Z0.0000 F20.000
G01 X34.5360 Y80.6343 Z-0.0250
G01 X34.5635 Y80.6432 Z-0.0500
G01 X30.7593 Y79.4060
G00 Z5.0000


(Nr. 55: Gravur 14)
G00 X35.0530 Y77.5539 Z5.0000
G00 Z0.5000
G01 Z0.0000 F20.000
G01 X35.0241 Z-0.0250
G01 X35.0530 Z-0.0500
G01 X31.0530
G00 Z5.0000


(Nr. 56: Gravur 15)
G00 X34.5635 Y74.4636 Z5.0000
G00 Z0.5000
G01 Z0.0000 F20.000
G01 X34.5360 Y74.4725 Z-0.0250
G01 X34.5635 Y74.4636 Z-0.0500
G01 X30.7593 Y75.6992
G00 Z5.0000


(Nr. 57: Gravur 16)
G00 X33.1432 Y71.6749 Z5.0000
G00 Z0.5000
G01 Z0.0000 F20.000
G01 X33.1199 Y71.6919 Z-0.0250
G01 X33.1432 Y71.6749 Z-0.0500
G01 X29.9071 Y74.0270
G00 Z5.0000


(Nr. 58: Gravur 17)
G00 X30.9308 Y69.4630 Z5.0000
G00 Z0.5000
G01 Z0.0000 F20.000
G01 X30.9138 Y69.4863 Z-0.0250
G01 X30.9308 Y69.4630 Z-0.0500
G01 X28.5797 Y72.6988
G00 Z5.0000


(Nr. 59: Gravur 32)
G00 X33.1882 Y68.5434 Z5.0000
G00 Z0.5000
G01 Z0.0000 F20.000
G01 Y68.5723 Z-0.0250
G01 Y68.5434 Z-0.0500
G01 Y70.2767
G00 Z5.0000


(Nr. 60: Gravur 33)
G00 X34.0602 Y69.4148 Z5.0000
G00 Z0.5000
G01 Z0.0000 F20.000
G01 X34.0313 Z-0.0250
G01 X34.0602 Z-0.0500
G01 X32.3304
G00 Z5.0000


(Nr. 61: Gravur 39)
G00 X31.7109 Y66.2345 Z5.0000
G00 Z0.5000
G01 Z0.0000 F20.000
G01 X31.7313 Y66.2141 Z-0.0250
G01 X31.7109 Y66.2345 Z-0.0500
G01 X31.8062 Y66.1391
G01 X32.8225
G01 X32.9240 Y66.2406
G01 Y66.7396
G01 X32.8286 Y66.8349
G01 X31.7109
G01 Y65.5831
G00 Z5.0000


(Nr. 62: Gravur 38)
G00 X30.1969 Y65.6918 Z5.0000
G00 Z0.5000
G01 Z0.0000 F20.000
G01 X30.2157 Y65.7138 Z-0.0250
G01 X30.1969 Y65.6918 Z-0.0500
G01 X31.1357 Y66.7903
G00 Z5.0000


(Nr. 63: Gravur 45)
G00 X30.1414 Y64.8227 Z5.0000
G00 Z0.5000
G01 Z0.0000 F20.000
G01 X30.1703 Z-0.0250
G01 X30.1414 Z-0.0500
G01 X37.9806
G00 Z5.0000


(Nr. 64: Gravur 44)
G00 X36.7028 Y66.0696 Z5.0000
G00 Z0.5000
G01 Z0.0000 F20.000
G01 X36.7316 Z-0.0250
G01 X36.7028 Z-0.0500
G01 X37.6663
G01 Y66.4388
G01 X37.5588 Y66.5484
G01 X36.8184
G01 X36.7089 Y66.4328
G01 Y65.6917
G01 X36.8103 Y65.5831
G01 X37.7191
G00 Z5.0000


(Nr. 65: Gravur 41)
G00 X35.3390 Y65.7603 Z5.0000
G00 Z0.5000
G01 Z0.0000 F20.000
G01 Y65.7314 Z-0.0250
G01 Y65.7603 Z-0.0500
G01 Y65.6964
G01 X35.4282 Y65.6069
G01 X36.1950
G01 X36.2904 Y65.7092
G01 Y65.9836
G01 X36.2011 Y66.0729
G01 X35.4546
G01 X35.3512 Y66.1763
G01 Y66.4624
G01 X35.4607 Y66.5658
G01 X36.1829
G01 X36.2843 Y66.4624
G01 Y66.4056
G00 Z5.0000


(Nr. 66: Gravur 43)
G00 X34.9530 Y65.5831 Z5.0000
G00 Z0.5000
G01 Z0.0000 F20.000
G01 X34.9242 Z-0.0250
G01 X34.9530 Z-0.0500
G01 X34.7481
G01 X34.6345 Y65.6981
G01 Y66.9436
G00 Z5.0000


(Nr. 67: Gravur 40)
G00 X34.2404 Y66.5863 Z5.0000
G00 Z0.5000
G01 Z0.0000 F20.000
G01 Y66.5574 Z-0.0250
G01 Y66.5863 Z-0.0500
G01 Y65.6980
G01 X34.1329 Y65.5831
G01 X33.3722
G01 X33.2829 Y65.6727
G01 Y66.5741
G00 Z5.0000


(Nr. 68: Gravur 42)
G00 X34.2404 Y66.5863 Z5.0000
G00 Z0.5000
G01 Z0.0000 F20.000
G01 Y66.5574 Z-0.0250
G01 Y66.5863 Z-0.0500
G01 Y65.6980
G01 X34.1329 Y65.5831
G01 X33.3722
G01 X33.2829 Y65.6727
G01 Y66.5741
G00 Z5.0000


(Nr. 69: Gravur 37)
G00 X27.5761 Y66.3941 Z5.0000
G00 Z0.5000
G01 Z0.0000 F20.000
G01 X27.6050 Z-0.0250
G01 X27.5761 Z-0.0500
G01 X29.1822
G01 Y67.0095
G01 X29.0030 Y67.1921
G01 X27.7688
G01 X27.5863 Y66.9993
G01 Y65.7642
G01 X27.7553 Y65.5832
G01 X29.2701
G00 Z5.0000


(Nr. 70: Gravur 36)
G00 X25.5102 Y65.5832 Z5.0000
G00 Z0.5000
G01 Z0.0000 F20.000
G01 Y65.6120 Z-0.0250
G01 Y65.5832 Z-0.0500
G01 Y67.2335
G01 X26.9574
G01 X27.1163 Y67.0746
G01 Y65.5727
G00 Z5.0000


(Nr. 71: Gravur 35)
G00 X23.4205 Y67.2350 Z5.0000
G00 Z0.5000
G01 Z0.0000 F20.000
G01 Y67.2061 Z-0.0250
G01 Y67.2350 Z-0.0500
G01 Y65.7324
G01 X23.5693 Y65.5832
G01 X24.8372
G01 X25.0164 Y65.7747
G01 Y67.2553
G00 Z5.0000


(Nr. 72: Gravur 34)
G00 X23.1029 Y67.6798 Z5.0000
G00 Z0.5000
G01 Z0.0000 F20.000
G01 X23.0740 Z-0.0250
G01 X23.1029 Z-0.0500
G01 X20.9407
G01 X22.0277
G01 Y65.5832
G00 Z5.0000


(Nr. 73: Gravur 1)
G00 X19.1751 Y69.4630 Z5.0000
G00 Z0.5000
G01 Z0.0000 F20.000
G01 X19.1920 Y69.4863 Z-0.0250
G01 X19.1751 Y69.4630 Z-0.0500
G01 X21.5262 Y72.6988
G00 Z5.0000


(Nr. 74: Gravur 3)
G00 X15.5423 Y74.4636 Z5.0000
G00 Z0.5000
G01 Z0.0000 F20.000
G01 X15.5698 Y74.4725 Z-0.0250
G01 X15.5423 Y74.4636 Z-0.0500
G01 X19.3465 Y75.6992
G00 Z5.0000


(Nr. 75: Gravur 19)
G00 X18.7345 Y90.4198 Z5.0000
G00 Z0.5000
G01 Z0.0000 F20.000
G01 Y90.3909 Z-0.0250
G01 Y90.4198 Z-0.0500
G01 Y90.2705
G01 X18.9431 Y90.0614
G01 X20.7347
G01 X20.9575 Y90.3003
G01 Y90.9416
G01 X20.7489 Y91.1502
G01 X19.0047
G01 X18.7630 Y91.3919
G01 Y92.0602
G01 X19.0189 Y92.3019
G01 X20.7063
G01 X20.9432 Y92.0602
G01 Y91.9275
G00 Z5.0000


(Nr. 76: Gravur 20)
G00 X24.0336 Y90.0614 Z5.0000
G00 Z0.5000
G01 Z0.0000 F20.000
G01 X24.0047 Z-0.0250
G01 X24.0336 Z-0.0500
G01 X21.9149
G01 X21.6589 Y90.3302
G01 Y92.0460
G01 X21.9149 Y92.3019
G01 X24.0336
G00 Z5.0000


(Nr. 77: Gravur 21)
G00 X24.0336 Y90.0614 Z5.0000
G00 Z0.5000
G01 Z0.0000 F20.000
G01 X24.0047 Z-0.0250
G01 X24.0336 Z-0.0500
G01 X21.9149
G01 X21.6589 Y90.3302
G01 Y92.0460
G01 X21.9149 Y92.3019
G01 X24.0336
G00 Z5.0000


(Nr. 78: Gravur 18)
G00 X15.4972 Y90.0764 Z5.0000
G00 Z0.5000
G01 Z0.0000 F20.000
G01 X15.5261 Z-0.0250
G01 X15.4972 Z-0.0500
G01 X17.8245
G01 X18.0615 Y90.3155
G01 Y92.6432
G01 X17.8245 Y92.8517
G01 X15.4783 Y92.8660
G01 X15.2413 Y92.6005
G01 Y90.3155
G01 X15.4972 Y90.0764
G00 Z5.0000


(Nr. 79: Gravur 70)
G00 X50.0530 Y86.5529 Z5.0000
G00 Z0.5000
G01 Z0.0000 F20.000
G01 Y86.5818 Z-0.0250
G01 Y86.5529 Z-0.0500
G01 X50.0529 Y90.5529
G02 X50.9745 Y91.5498 I0.9999 J0.0000
G01 X51.0482 Y91.5577
G01 X72.0090
G00 Z5.0000


(Nr. 80: Gravur 72)
G00 X74.9458 Y91.5529 Z5.0000
G00 Z0.5000
G01 Z0.0000 F20.000
G01 X74.9170 Z-0.0250
G01 X74.9458 Z-0.0500
G01 X72.8018
G01 Y90.1092
G01 X75.4795
G00 Z5.0000


(Nr. 81: Gravur 71)
G00 X75.4653 Y92.9035 Z5.0000
G00 Z0.5000
G01 Z0.0000 F20.000
G01 X75.4364 Z-0.0250
G01 X75.4653 Z-0.0500
G01 X72.8018
G01 Y90.1092
G01 X75.4795
G00 Z5.0000


(Nr. 82: Gravur 74)
G00 X78.9958 Y90.1092 Z5.0000
G00 Z0.5000
G01 Z0.0000 F20.000
G01 Y90.1381 Z-0.0250
G01 Y90.1092 Z-0.0500
G01 Y93.3956
G01 Y92.4464
G01 X80.9746
G01 X81.2437 Y92.1914
G01 Y90.0941
G00 Z5.0000


(Nr. 83: Gravur 75)
G00 X81.8784 Y92.0298 Z5.0000
G00 Z0.5000
G01 Z0.0000 F20.000
G01 Y92.0010 Z-0.0250
G01 Y92.0298 Z-0.0500
G01 Y90.3770
G01 X82.1287 Y90.1092
G01 X83.8572
G01 X84.0933 Y90.3472
G01 Y92.1337
G01 X83.8855 Y92.3557
G01 X82.1760
G01 X81.8784 Y92.0298
G00 Z5.0000


(Nr. 84: Gravur 76)
G00 X84.9724 Y91.5530 Z5.0000
G00 Z0.5000
G01 Z0.0000 F20.000
G01 X85.0013 Z-0.0250
G01 X84.9724 Z-0.0500
G01 X107.0572
G02 X108.0529 Y90.5529 I-0.0045 J-1.0002
G01 X108.0528 Y86.5529
G00 Z5.0000


(Nr. 85: Gravur 88)
G00 X101.9070 Y81.0795 Z5.0000
G00 Z0.5000
G01 Z0.0000 F20.000
G01 X101.9304 Y81.0965 Z-0.0250
G01 X101.9070 Y81.0795 Z-0.0500
G01 X105.1431 Y83.4309
G00 Z5.0000


(Nr. 86: Gravur 87)
G00 X100.5796 Y82.4069 Z5.0000
G00 Z0.5000
G01 Z0.0000 F20.000
G01 X100.5966 Y82.4303 Z-0.0250
G01 X100.5796 Y82.4069 Z-0.0500
G01 X102.9308 Y85.6430
G00 Z5.0000


(Nr. 87: Gravur 86)
G00 X98.9070 Y83.2591 Z5.0000
G00 Z0.5000
G01 Z0.0000 F20.000
G01 X98.9159 Y83.2866 Z-0.0250
G01 X98.9070 Y83.2591 Z-0.0500
G01 X100.1431 Y87.0636
G00 Z5.0000


(Nr. 88: Gravur 85)
G00 X97.0529 Y83.5528 Z5.0000
G00 Z0.5000
G01 Z0.0000 F20.000
G01 Y83.5817 Z-0.0250
G01 Y83.5528 Z-0.0500
G01 Y87.5528
G00 Z5.0000


(Nr. 89: Gravur 84)
G00 X95.1988 Y83.2591 Z5.0000
G00 Z0.5000
G01 Z0.0000 F20.000
G01 X95.1899 Y83.2866 Z-0.0250
G01 X95.1988 Y83.2591 Z-0.0500
G01 X93.9627 Y87.0636
G00 Z5.0000


(Nr. 90: Gravur 83)
G00 X93.5262 Y82.4069 Z5.0000
G00 Z0.5000
G01 Z0.0000 F20.000
G01 X93.5092 Y82.4303 Z-0.0250
G01 X93.5262 Y82.4069 Z-0.0500
G01 X91.1751 Y85.6430
G00 Z5.0000


(Nr. 91: Gravur 82)
G00 X92.1988 Y81.0795 Z5.0000
G00 Z0.5000
G01 Z0.0000 F20.000
G01 X92.1755 Y81.0965 Z-0.0250
G01 X92.1988 Y81.0795 Z-0.0500
G01 X88.9628 Y83.4309
G00 Z5.0000


(Nr. 92: Gravur 81)
G00 X87.5424 Y80.6432 Z5.0000
G00 Z0.5000
G01 Z0.0000 F20.000
G01 X87.5698 Y80.6343 Z-0.0250
G01 X87.5424 Y80.6432 Z-0.0500
G01 X91.3466 Y79.4060
G00 Z5.0000


(Nr. 93: Gravur 80)
G00 X87.0529 Y77.5539 Z5.0000
G00 Z0.5000
G01 Z0.0000 F20.000
G01 X87.0818 Z-0.0250
G01 X87.0529 Z-0.0500
G01 X91.0529
G00 Z5.0000


(Nr. 94: Gravur 78)
G00 X92.1988 Y74.0270 Z5.0000
G00 Z0.5000
G01 Z0.0000 F20.000
G01 X92.1755 Y74.0101 Z-0.0250
G01 X92.1988 Y74.0270 Z-0.0500
G01 X88.9628 Y71.6749
G00 Z5.0000


(Nr. 95: Gravur 96)
G00 X88.5137 Y69.4101 Z5.0000
G00 Z0.5000
G01 Z0.0000 F20.000
G01 X88.5426 Z-0.0250
G01 X88.5137 Z-0.0500
G01 X89.8782
G00 Z5.0000


(Nr. 96: Gravur 105)
G00 X90.7928 Y67.6726 Z5.0000
G00 Z0.5000
G01 Z0.0000 F20.000
G01 X90.7639 Z-0.0250
G01 X90.7928 Z-0.0500
G01 X88.7995
G01 Y65.4786
G00 Z5.0000


(Nr. 97: Gravur 104)
G00 X90.4166 Y66.6531 Z5.0000
G00 Z0.5000
G01 Z0.0000 F20.000
G01 X90.3878 Z-0.0250
G01 X90.4166 Z-0.0500
G01 X88.7995
G01 Y65.4786
G00 Z5.0000


(Nr. 98: Gravur 106)
G00 X92.6675 Y65.4786 Z5.0000
G00 Z0.5000
G01 Z0.0000 F20.000
G01 X92.6386 Z-0.0250
G01 X92.6675 Z-0.0500
G01 X91.0925
G01 X90.9168 Y65.6669
G01 Y66.9511
G01 X91.1066 Y67.1514
G01 X92.3897
G01 X92.5761 Y66.9616
G01 Y66.3218
G01 X90.9062
G00 Z5.0000


(Nr. 99: Gravur 107)
G00 X93.0753 Y66.3218 Z5.0000
G00 Z0.5000
G01 Z0.0000 F20.000
G01 X93.1041 Z-0.0250
G01 X93.0753 Z-0.0500
G01 X94.7451
G01 Y66.9616
G01 X94.5588 Y67.1514
G01 X93.2757
G01 X93.0858 Y66.9511
G01 Y65.6669
G01 X93.2616 Y65.4786
G01 X94.8365
G00 Z5.0000


(Nr. 100: Gravur 108)
G00 X96.8368 Y66.9505 Z5.0000
G00 Z0.5000
G01 Z0.0000 F20.000
G01 X96.8157 Y66.9703 Z-0.0250
G01 X96.8368 Y66.9505 Z-0.0500
G01 X96.6716 Y67.1052
G01 X95.3216
G01 X95.1332 Y66.9189
G01 Y65.6888
G01 X95.3322 Y65.4786
G01 X96.8509
G01 Y67.8259
G00 Z5.0000


(Nr. 101: Gravur 109)
G00 X97.3571 Y66.9957 Z5.0000
G00 Z0.5000
G01 Z0.0000 F20.000
G01 X97.3775 Y67.0161 Z-0.0250
G01 X97.3571 Y66.9957 Z-0.0500
G01 X97.4801 Y67.1187
G01 X98.8090
G01 X98.9953 Y66.9289
G01 Y65.6669
G01 X98.8195 Y65.4786
G01 X97.3360
G01 Y67.8253
G00 Z5.0000


(Nr. 102: Gravur 110)
G00 X99.3398 Y67.1298 Z5.0000
G00 Z0.5000
G01 Z0.0000 F20.000
G01 X99.3687 Z-0.0250
G01 X99.3398 Z-0.0500
G01 X100.9007
G01 X101.0870 Y66.9505
G01 Y65.4786
G01 X99.5930
G01 X99.4172 Y65.6558
G01 Y66.2861
G01 X101.0659
G00 Z5.0000


(Nr. 103: Gravur 111)
G00 X103.3618 Y65.4786 Z5.0000
G00 Z0.5000
G01 Z0.0000 F20.000
G01 X103.3329 Z-0.0250
G01 X103.3618 Z-0.0500
G01 X101.7903
G01 X101.6005 Y65.6779
G01 Y66.9505
G01 X101.7903 Y67.1404
G01 X103.3618
G00 Z5.0000


(Nr. 104: Gravur 112)
G00 X105.2950 Y67.3284 Z5.0000
G00 Z0.5000
G01 Z0.0000 F20.000
G01 X105.2758 Y67.3069 Z-0.0250
G01 X105.2950 Y67.3284 Z-0.0500
G01 X104.4759 Y66.4074
G01 X103.7447
G01 Y65.4786
G01 Y67.9366
G00 Z5.0000


(Nr. 105: Gravur 97)
G00 X105.1893 Y68.5434 Z5.0000
G00 Z0.5000
G01 Z0.0000 F20.000
G01 Y68.5723 Z-0.0250
G01 Y68.5434 Z-0.0500
G01 Y70.2767
G00 Z5.0000


(Nr. 106: Gravur 98)
G00 X104.3315 Y69.4148 Z5.0000
G00 Z0.5000
G01 Z0.0000 F20.000
G01 X104.3603 Z-0.0250
G01 X104.3315 Z-0.0500
G01 X106.0612
G00 Z5.0000


(Nr. 107: Gravur 113)
G00 X105.3056 Y65.4895 Z5.0000
G00 Z0.5000
G01 Z0.0000 F20.000
G01 X105.2862 Y65.5109 Z-0.0250
G01 X105.3056 Y65.4895 Z-0.0500
G01 X104.4759 Y66.4074
G01 X103.7447
G01 Y65.4786
G01 Y67.9366
G00 Z5.0000


(Nr. 108: Gravur 93)
G00 X100.5796 Y72.6988 Z5.0000
G00 Z0.5000
G01 Z0.0000 F20.000
G01 X100.5966 Y72.6755 Z-0.0250
G01 X100.5796 Y72.6988 Z-0.0500
G01 X102.9308 Y69.4630
G00 Z5.0000


(Nr. 109: Gravur 92)
G00 X101.9070 Y74.0270 Z5.0000
G00 Z0.5000
G01 Z0.0000 F20.000
G01 X101.9304 Y74.0101 Z-0.0250
G01 X101.9070 Y74.0270 Z-0.0500
G01 X105.1431 Y71.6749
G00 Z5.0000


(Nr. 110: Gravur 91)
G00 X102.7593 Y75.6992 Z5.0000
G00 Z0.5000
G01 Z0.0000 F20.000
G01 X102.7867 Y75.6903 Z-0.0250
G01 X102.7593 Y75.6992 Z-0.0500
G01 X106.5635 Y74.4636
G00 Z5.0000


(Nr. 111: Gravur 90)
G00 X103.0529 Y77.5539 Z5.0000
G00 Z0.5000
G01 Z0.0000 F20.000
G01 X103.0818 Z-0.0250
G01 X103.0529 Z-0.0500
G01 X107.0530
G00 Z5.0000


(Nr. 112: Gravur 89)
G00 X102.7593 Y79.4060 Z5.0000
G00 Z0.5000
G01 Z0.0000 F20.000
G01 X102.7867 Y79.4149 Z-0.0250
G01 X102.7593 Y79.4060 Z-0.0500
G01 X106.5635 Y80.6432
G00 Z5.0000


(Nr. 113: Gravur 77)
G00 X93.5262 Y72.6988 Z5.0000
G00 Z0.5000
G01 Z0.0000 F20.000
G01 X93.5092 Y72.6755 Z-0.0250
G01 X93.5262 Y72.6988 Z-0.0500
G01 X91.1751 Y69.4630
G00 Z5.0000


(Nr. 114: Gravur 79)
G00 X87.5424 Y74.4636 Z5.0000
G00 Z0.5000
G01 Z0.0000 F20.000
G01 X87.5698 Y74.4725 Z-0.0250
G01 X87.5424 Y74.4636 Z-0.0500
G01 X91.3466 Y75.6992
G00 Z5.0000


(Nr. 115: Gravur 195)
G00 X92.0529 Y57.5541 Z5.0000
G00 Z0.5000
G01 Z0.0000 F20.000
G01 X92.0734 Y57.5745 Z-0.0250
G01 X92.0529 Y57.5541 Z-0.0500
G01 X94.0529 Y59.5517
G01 Y57.5541
G01 X96.0529 Y59.5517
G01 Y57.5541
G00 Z5.0000


(Nr. 116: Gravur 214)
G00 X103.1027 Y57.6285 Z5.0000
G00 Z0.5000
G01 Z0.0000 F20.000
G01 Y57.6574 Z-0.0250
G01 Y57.6285 Z-0.0500
G01 Y59.4771
G01 X103.0193
G01 X102.4318 Y58.9621
G00 Z5.0000


(Nr. 117: Gravur 215)
G00 X108.4483 Y59.1639 Z5.0000
G00 Z0.5000
G01 Z0.0000 F20.000
G01 Y59.1928 Z-0.0250
G01 Y59.1639 Z-0.0500
G01 Y59.2819
G01 X108.6071 Y59.4775
G01 X109.8472
G01 X109.9883 Y59.2912
G01 Y58.6950
G01 X109.8472 Y58.5180
G01 X108.5995
G01 X108.4483 Y58.3317
G01 Y57.6283
G01 X110.0513
G00 Z5.0000


(Nr. 118: Gravur 219)
G00 X107.7784 Y42.1154 Z5.0000
G00 Z0.5000
G01 Z0.0000 F20.000
G01 Y42.0866 Z-0.0250
G01 Y42.1154 Z-0.0500
G01 Y40.3069
G01 X107.9810 Y40.1177
G01 X109.8229
G01 X110.0104 Y40.3069
G01 Y42.1492
G01 X109.8229 Y42.3142
G01 X107.9659 Y42.3255
G01 X107.7784 Y42.1154
G00 Z5.0000


(Nr. 119: Gravur 217)
G00 X105.1639 Y40.1177 Z5.0000
G00 Z0.5000
G01 Z0.0000 F20.000
G01 Y40.1465 Z-0.0250
G01 Y40.1177 Z-0.0500
G01 Y41.3710
G01 X106.8895
G00 Z5.0000


(Nr. 120: Gravur 218)
G00 X105.1639 Y40.1177 Z5.0000
G00 Z0.5000
G01 Z0.0000 F20.000
G01 Y40.1465 Z-0.0250
G01 Y40.1177 Z-0.0500
G01 Y42.4589
G01 X107.2909
G00 Z5.0000


(Nr. 121: Gravur 223)
G00 X105.1876 Y38.2421 Z5.0000
G00 Z0.5000
G01 Z0.0000 F20.000
G01 X105.2165 Z-0.0250
G01 X105.1876 Z-0.0500
G01 X106.2242
G01 X106.3480 Y38.1231
G01 Y37.1455
G01 X105.3557
G01 X105.2389 Y37.2632
G01 Y37.6818
G01 X106.3340
G00 Z5.0000


(Nr. 122: Gravur 222)
G00 X104.8208 Y37.1455 Z5.0000
G00 Z0.5000
G01 Z0.0000 F20.000
G01 X104.7919 Z-0.0250
G01 X104.8208 Z-0.0500
G01 X104.5850
G01 X104.4542 Y37.2779
G01 Y38.7114
G00 Z5.0000


(Nr. 123: Gravur 221)
G00 X104.0669 Y38.6026 Z5.0000
G00 Z0.5000
G01 Z0.0000 F20.000
G01 X104.0380 Z-0.0250
G01 X104.0669 Z-0.0500
G01 X102.7431
G01 Y37.1455
G00 Z5.0000


(Nr. 124: Gravur 220)
G00 X102.7431 Y37.1455 Z5.0000
G00 Z0.5000
G01 Z0.0000 F20.000
G01 Y37.1744 Z-0.0250
G01 Y37.1455 Z-0.0500
G01 Y37.9255
G01 X103.8171
G00 Z5.0000


(Nr. 125: Gravur 226)
G00 X102.3400 Y39.3677 Z5.0000
G00 Z0.5000
G01 Z0.0000 F20.000
G01 X102.3689 Z-0.0250
G01 X102.3400 Z-0.0500
G01 X109.9943
G00 Z5.0000


(Nr. 126: Gravur 225)
G00 X108.3948 Y37.3220 Z5.0000
G00 Z0.5000
G01 Z0.0000 F20.000
G01 Y37.2931 Z-0.0250
G01 Y37.3220 Z-0.0500
G01 Y37.2485
G01 X108.4975 Y37.1455
G01 X109.3801
G01 X109.4898 Y37.2632
G01 Y37.5791
G01 X109.3871 Y37.6818
G01 X108.5279
G01 X108.4088 Y37.8009
G01 Y38.1301
G01 X108.5349 Y38.2492
G01 X109.3661
G01 X109.4828 Y38.1301
G01 Y38.0647
G00 Z5.0000


(Nr. 127: Gravur 224)
G00 X107.9724 Y37.2780 Z5.0000
G00 Z0.5000
G01 Z0.0000 F20.000
G01 X107.9522 Y37.2575 Z-0.0250
G01 X107.9724 Y37.2780 Z-0.0500
G01 X107.8417 Y37.1455
G01 X106.9498
G01 X106.8401 Y37.2558
G01 Y38.1374
G01 X106.9732 Y38.2705
G01 X107.8487
G01 X107.9794 Y38.1374
G01 Y36.7786
G01 X107.8487 Y36.6455
G01 X107.0245
G00 Z5.0000


(Nr. 128: Gravur 216)
G00 X102.2231 Y42.4118 Z5.0000
G00 Z0.5000
G01 Z0.0000 F20.000
G01 Y42.3829 Z-0.0250
G01 Y42.4118 Z-0.0500
G01 Y40.1177
G01 X104.5639
G00 Z5.0000


(Nr. 129: Gravur 213)
G00 X93.2267 Y40.1147 Z5.0000
G00 Z0.5000
G01 Z0.0000 F20.000
G01 X93.1978 Z-0.0250
G01 X93.2267 Z-0.0500
G01 X91.6210
G01 X91.4418 Y40.3067
G01 Y41.6159
G01 X91.6353 Y41.8202
G01 X92.9435
G01 X93.1335 Y41.6267
G01 Y40.9744
G01 X91.4310
G00 Z5.0000


(Nr. 130: Gravur 198)
G00 X88.8720 Y41.9788 Z5.0000
G00 Z0.5000
G01 Z0.0000 F20.000
G01 X88.8859 Y41.9536 Z-0.0250
G01 X88.8720 Y41.9788 Z-0.0500
G01 X89.9006 Y40.1147
G01 X90.9830 Y42.0003
G00 Z5.0000


(Nr. 131: Gravur 197)
G00 X88.4096 Y40.9380 Z5.0000
G00 Z0.5000
G01 Z0.0000 F20.000
G01 X88.3807 Z-0.0250
G01 X88.4096 Z-0.0500
G01 X86.7287
G01 Y40.2954
G01 X86.9079 Y40.1147
G01 X88.4311
G01 Y41.6154
G01 X88.2412 Y41.7982
G01 X86.6498
G00 Z5.0000


(Nr. 132: Gravur 196)
G00 X82.8801 Y42.3971 Z5.0000
G00 Z0.5000
G01 Z0.0000 F20.000
G01 X82.8901 Y42.3700 Z-0.0250
G01 X82.8801 Y42.3971 Z-0.0500
G01 X83.7259 Y40.1147
G01 X84.5718 Y42.4186
G01 X85.4857 Y40.0811
G01 X86.3330 Y42.4294
G00 Z5.0000


(Nr. 133: Gravur 211)
G00 X78.2267 Y37.1085 Z5.0000
G00 Z0.5000
G01 Z0.0000 F20.000
G01 X78.2056 Y37.1283 Z-0.0250
G01 X78.2267 Y37.1085 Z-0.0500
G01 X78.1024 Y37.2248
G01 X77.0876
G01 X76.9460 Y37.0847
G01 Y36.1601
G01 X77.0956 Y36.0020
G01 X78.2372
G01 Y37.7666
G00 Z5.0000


(Nr. 134: Gravur 212)
G00 X78.1956 Y35.3746 Z5.0000
G00 Z0.5000
G01 Z0.0000 F20.000
G01 X78.1667 Z-0.0250
G01 X78.1956 Z-0.0500
G01 X66.9720
G00 Z5.0000


(Nr. 135: Gravur 203)
G00 X68.1730 Y36.7349 Z5.0000
G00 Z0.5000
G01 Z0.0000 F20.000
G01 X68.1441 Z-0.0250
G01 X68.1730 Z-0.0500
G01 X66.9732
G01 Y35.9270
G01 X68.4716
G00 Z5.0000


(Nr. 136: Gravur 205)
G00 X68.8313 Y35.9270 Z5.0000
G00 Z0.5000
G01 Z0.0000 F20.000
G01 Y35.9558 Z-0.0250
G01 Y35.9270 Z-0.0500
G01 Y37.2169
G01 X69.9624
G01 X70.0866 Y37.0927
G01 Y35.9188
G00 Z5.0000


(Nr. 137: Gravur 206)
G00 X70.4117 Y37.3015 Z5.0000
G00 Z0.5000
G01 Z0.0000 F20.000
G01 X70.4256 Y37.2762 Z-0.0250
G01 X70.4117 Y37.3015 Z-0.0500
G01 X71.1702 Y35.9270
G01 X71.9683 Y37.3173
G00 Z5.0000


(Nr. 138: Gravur 207)
G00 X72.0637 Y35.9521 Z5.0000
G00 Z0.5000
G01 Z0.0000 F20.000
G01 Y35.9809 Z-0.0250
G01 Y35.9521 Z-0.0500
G01 Y36.0438
G01 X71.9395
G01 Y35.9521
G01 X72.0637
G00 Z5.0000


(Nr. 139: Gravur 208)
G00 X72.7532 Y35.9436 Z5.0000
G00 Z0.5000
G01 Z0.0000 F20.000
G01 Y35.9725 Z-0.0250
G01 Y35.9436 Z-0.0500
G01 Y37.2327
G01 X73.6438
G01 X73.7680 Y37.1165
G01 Y35.9188
G00 Z5.0000


(Nr. 140: Gravur 209)
G00 X74.7669 Y35.9270 Z5.0000
G00 Z0.5000
G01 Z0.0000 F20.000
G01 Y35.9558 Z-0.0250
G01 Y35.9270 Z-0.0500
G01 Y37.1006
G01 X74.6348 Y37.2327
G01 X73.8842
G01 X73.7680 Y37.1165
G01 X73.6438 Y37.2327
G01 X72.7532
G01 Y35.9436
G00 Z5.0000


(Nr. 141: Gravur 210)
G00 X76.4557 Y36.1352 Z5.0000
G00 Z0.5000
G01 Z0.0000 F20.000
G01 Y36.1641 Z-0.0250
G01 Y36.1352 Z-0.0500
G01 Y37.1350
G01 X76.3394 Y37.2592
G01 X75.3828
G01 X75.2163 Y37.0768
G01 Y36.1519
G01 X75.3564 Y36.0020
G01 X76.3236
G01 X76.4557 Y36.1352
G00 Z5.0000


(Nr. 142: Gravur 170)
G00 X70.0620 Y39.4137 Z5.0000
G00 Z0.5000
G01 Z0.0000 F20.000
G01 X70.0331 Z-0.0250
G01 X70.0620 Z-0.0500
G01 X68.3322
G00 Z5.0000


(Nr. 143: Gravur 169)
G00 X69.1901 Y40.2756 Z5.0000
G00 Z0.5000
G01 Z0.0000 F20.000
G01 Y40.2467 Z-0.0250
G01 Y40.2756 Z-0.0500
G01 Y38.5423
G00 Z5.0000


(Nr. 144: Gravur 204)
G00 X68.4637 Y37.4907 Z5.0000
G00 Z0.5000
G01 Z0.0000 F20.000
G01 X68.4348 Z-0.0250
G01 X68.4637 Z-0.0500
G01 X66.9732
G01 Y35.9270
G01 X68.4716
G00 Z5.0000


(Nr. 145: Gravur 202)
G00 X64.7555 Y36.0686 Z5.0000
G00 Z0.5000
G01 Z0.0000 F20.000
G01 X64.7742 Y36.0906 Z-0.0250
G01 X64.7555 Y36.0686 Z-0.0500
G01 X65.9785 Y37.4997
G00 Z5.0000


(Nr. 146: Gravur 201)
G00 X63.8857 Y37.2884 Z5.0000
G00 Z0.5000
G01 Z0.0000 F20.000
G01 X63.8646 Y37.3081 Z-0.0250
G01 X63.8857 Y37.2884 Z-0.0500
G01 X63.7288 Y37.4353
G01 X62.4470
G01 X62.2681 Y37.2584
G01 Y36.0904
G01 X62.4570 Y35.8908
G01 X63.8990
G01 Y38.1196
G00 Z5.0000


(Nr. 147: Gravur 188)
G00 X66.9308 Y39.4619 Z5.0000
G00 Z0.5000
G01 Z0.0000 F20.000
G01 X66.9138 Y39.4852 Z-0.0250
G01 X66.9308 Y39.4619 Z-0.0500
G01 X64.5796 Y42.6977
G00 Z5.0000


(Nr. 148: Gravur 186)
G00 X66.7593 Y45.6981 Z5.0000
G00 Z0.5000
G01 Z0.0000 F20.000
G01 X66.7867 Y45.6892 Z-0.0250
G01 X66.7593 Y45.6981 Z-0.0500
G01 X70.5635 Y44.4625
G00 Z5.0000


(Nr. 149: Gravur 187)
G00 X69.1431 Y41.6738 Z5.0000
G00 Z0.5000
G01 Z0.0000 F20.000
G01 X69.1197 Y41.6908 Z-0.0250
G01 X69.1431 Y41.6738 Z-0.0500
G01 X65.9070 Y44.0259
G00 Z5.0000


(Nr. 150: Gravur 185)
G00 X67.0529 Y47.5528 Z5.0000
G00 Z0.5000
G01 Z0.0000 F20.000
G01 X67.0818 Z-0.0250
G01 X67.0529 Z-0.0500
G01 X71.0529
G00 Z5.0000


(Nr. 151: Gravur 184)
G00 X66.7593 Y49.4076 Z5.0000
G00 Z0.5000
G01 Z0.0000 F20.000
G01 X66.7867 Y49.4165 Z-0.0250
G01 X66.7593 Y49.4076 Z-0.0500
G01 X70.5635 Y50.6432
G00 Z5.0000


(Nr. 152: Gravur 183)
G00 X65.9070 Y51.0797 Z5.0000
G00 Z0.5000
G01 Z0.0000 F20.000
G01 X65.9304 Y51.0967 Z-0.0250
G01 X65.9070 Y51.0797 Z-0.0500
G01 X69.1431 Y53.4319
G00 Z5.0000


(Nr. 153: Gravur 182)
G00 X66.9308 Y55.6438 Z5.0000
G00 Z0.5000
G01 Z0.0000 F20.000
G01 X66.9138 Y55.6204 Z-0.0250
G01 X66.9308 Y55.6438 Z-0.0500
G01 X64.5796 Y52.4079
G00 Z5.0000


(Nr. 154: Gravur 181)
G00 X64.1431 Y57.0646 Z5.0000
G00 Z0.5000
G01 Z0.0000 F20.000
G01 X64.1342 Y57.0371 Z-0.0250
G01 X64.1431 Y57.0646 Z-0.0500
G01 X62.9070 Y53.2599
G00 Z5.0000


(Nr. 155: Gravur 178)
G00 X59.1988 Y53.2599 Z5.0000
G00 Z0.5000
G01 Z0.0000 F20.000
G01 X59.1899 Y53.2873 Z-0.0250
G01 X59.1988 Y53.2599 Z-0.0500
G01 X57.9627 Y57.0646
G00 Z5.0000


(Nr. 156: Gravur 179)
G00 X61.0529 Y57.5541 Z5.0000
G00 Z0.5000
G01 Z0.0000 F20.000
G01 Y57.5252 Z-0.0250
G01 Y57.5541 Z-0.0500
G01 Y53.5536
G00 Z5.0000


(Nr. 157: Gravur 177)
G00 X57.5262 Y52.4079 Z5.0000
G00 Z0.5000
G01 Z0.0000 F20.000
G01 X57.5092 Y52.4313 Z-0.0250
G01 X57.5262 Y52.4079 Z-0.0500
G01 X55.1751 Y55.6438
G00 Z5.0000


(Nr. 158: Gravur 176)
G00 X56.1988 Y51.0797 Z5.0000
G00 Z0.5000
G01 Z0.0000 F20.000
G01 X56.1755 Y51.0967 Z-0.0250
G01 X56.1988 Y51.0797 Z-0.0500
G01 X52.9628 Y53.4319
G00 Z5.0000


(Nr. 159: Gravur 175)
G00 X55.3466 Y49.4076 Z5.0000
G00 Z0.5000
G01 Z0.0000 F20.000
G01 X55.3191 Y49.4165 Z-0.0250
G01 X55.3466 Y49.4076 Z-0.0500
G01 X51.5423 Y50.6432
G00 Z5.0000


(Nr. 160: Gravur 174)
G00 X51.0529 Y47.5528 Z5.0000
G00 Z0.5000
G01 Z0.0000 F20.000
G01 X51.0817 Z-0.0250
G01 X51.0529 Z-0.0500
G01 X55.0529
G00 Z5.0000


(Nr. 161: Gravur 173)
G00 X55.3466 Y45.6981 Z5.0000
G00 Z0.5000
G01 Z0.0000 F20.000
G01 X55.3191 Y45.6892 Z-0.0250
G01 X55.3466 Y45.6981 Z-0.0500
G01 X51.5423 Y44.4625
G00 Z5.0000


(Nr. 162: Gravur 172)
G00 X52.9628 Y41.6738 Z5.0000
G00 Z0.5000
G01 Z0.0000 F20.000
G01 X52.9861 Y41.6908 Z-0.0250
G01 X52.9628 Y41.6738 Z-0.0500
G01 X56.1988 Y44.0259
G00 Z5.0000


(Nr. 163: Gravur 171)
G00 X55.1751 Y39.4619 Z5.0000
G00 Z0.5000
G01 Z0.0000 F20.000
G01 X55.1920 Y39.4852 Z-0.0250
G01 X55.1751 Y39.4619 Z-0.0500
G01 X57.5262 Y42.6977
G00 Z5.0000


(Nr. 164: Gravur 168)
G00 X53.8782 Y39.4088 Z5.0000
G00 Z0.5000
G01 Z0.0000 F20.000
G01 X53.8493 Z-0.0250
G01 X53.8782 Z-0.0500
G01 X52.5137
G00 Z5.0000


(Nr. 165: Gravur 200)
G00 X60.3340 Y37.2484 Z5.0000
G00 Z0.5000
G01 Z0.0000 F20.000
G01 Y37.2195 Z-0.0250
G01 Y37.2484 Z-0.0500
G01 Y36.0800
G01 X60.5109 Y35.8908
G01 X61.7326
G01 X61.8995 Y36.0590
G01 Y37.3218
G01 X61.7527 Y37.4787
G01 X60.5443
G01 X60.3340 Y37.2484
G00 Z5.0000


(Nr. 166: Gravur 199)
G00 X59.9233 Y35.8908 Z5.0000
G00 Z0.5000
G01 Z0.0000 F20.000
G01 Y35.9196 Z-0.0250
G01 Y35.8908 Z-0.0500
G01 Y38.0241
G01 X59.8265
G01 X58.7951 Y36.7957
G01 X57.7569 Y38.0141
G01 X57.6501 Y38.0241
G01 Y35.9118
G00 Z5.0000


(Nr. 167: Gravur 180)
G00 X60.4509 Y59.1628 Z5.0000
G00 Z0.5000
G01 Z0.0000 F20.000
G01 X60.4733 Y59.1810 Z-0.0250
G01 X60.4509 Y59.1628 Z-0.0500
G01 X61.6549 Y60.1388
G01 X61.6669 Y59.1628
G01 X61.5489 Y59.0494
G01 X60.5529
G01 X60.4389 Y59.1566
G01 Y60.1088
G01 X60.5649 Y60.2328
G01 X61.5669
G01 X61.6669 Y60.1328
G00 Z5.0000


(Nr. 168: Gravur 99)
G00 X64.3844 Y64.7116 Z5.0000
G00 Z0.5000
G01 Z0.0000 F20.000
G01 X64.4132 Z-0.0250
G01 X64.3844 Z-0.0500
G01 X65.6298
G01 X65.8274 Y64.9127
G01 Y67.2237
G01 Y65.6003
G01 X65.6969 Y65.4783
G01 X64.2856
G01 X64.0950 Y65.6674
G01 Y67.2131
G00 Z5.0000


(Nr. 169: Gravur 100)
G00 X63.6611 Y66.2887 Z5.0000
G00 Z0.5000
G01 Z0.0000 F20.000
G01 X63.6322 Z-0.0250
G01 X63.6611 Z-0.0500
G01 X62.0063
G01 Y65.6561
G01 X62.1827 Y65.4783
G01 X63.6822
G01 Y66.9556
G01 X63.4952 Y67.1355
G01 X61.9287
G00 Z5.0000


(Nr. 170: Gravur 101)
G00 X61.7276 Y65.4783 Z5.0000
G00 Z0.5000
G01 Z0.0000 F20.000
G01 X61.6987 Z-0.0250
G01 X61.7276 Z-0.0500
G01 X61.3712
G01 X61.1736 Y65.6783
G01 Y67.8447
G00 Z5.0000


(Nr. 171: Gravur 102)
G00 X59.0073 Y66.3134 Z5.0000
G00 Z0.5000
G01 Z0.0000 F20.000
G01 X59.0361 Z-0.0250
G01 X59.0073 Z-0.0500
G01 X60.6832
G01 Y66.9556
G01 X60.4962 Y67.1461
G01 X59.2084
G01 X59.0178 Y66.9450
G01 Y65.6561
G01 X59.1943 Y65.4672
G01 X60.7749
G00 Z5.0000


(Nr. 172: Gravur 103)
G00 X56.3505 Y65.4783 Z5.0000
G00 Z0.5000
G01 Z0.0000 F20.000
G01 X56.3793 Z-0.0250
G01 X56.3505 Z-0.0500
G01 X58.2416
G01 X58.4498 Y65.6893
G01 Y67.3684
G01 X58.2522 Y67.5660
G01 X56.3505
G01 Y65.4783
G00 Z5.0000


(Nr. 173: Gravur 53)
G00 X55.1751 Y69.4630 Z5.0000
G00 Z0.5000
G01 Z0.0000 F20.000
G01 X55.1920 Y69.4863 Z-0.0250
G01 X55.1751 Y69.4630 Z-0.0500
G01 X57.5262 Y72.6988
G00 Z5.0000


(Nr. 174: Gravur 54)
G00 X52.9628 Y71.6749 Z5.0000
G00 Z0.5000
G01 Z0.0000 F20.000
G01 X52.9861 Y71.6919 Z-0.0250
G01 X52.9628 Y71.6749 Z-0.0500
G01 X56.1988 Y74.0270
G00 Z5.0000


(Nr. 175: Gravur 55)
G00 X51.5423 Y74.4636 Z5.0000
G00 Z0.5000
G01 Z0.0000 F20.000
G01 X51.5698 Y74.4725 Z-0.0250
G01 X51.5423 Y74.4636 Z-0.0500
G01 X55.3466 Y75.6992
G00 Z5.0000


(Nr. 176: Gravur 56)
G00 X51.0529 Y77.5539 Z5.0000
G00 Z0.5000
G01 Z0.0000 F20.000
G01 X51.0817 Z-0.0250
G01 X51.0529 Z-0.0500
G01 X55.0529
G00 Z5.0000


(Nr. 177: Gravur 57)
G00 X51.5423 Y80.6432 Z5.0000
G00 Z0.5000
G01 Z0.0000 F20.000
G01 X51.5698 Y80.6343 Z-0.0250
G01 X51.5423 Y80.6432 Z-0.0500
G01 X55.3466 Y79.4060
G00 Z5.0000


(Nr. 178: Gravur 58)
G00 X52.9628 Y83.4309 Z5.0000
G00 Z0.5000
G01 Z0.0000 F20.000
G01 X52.9861 Y83.4139 Z-0.0250
G01 X52.9628 Y83.4309 Z-0.0500
G01 X56.1988 Y81.0795
G00 Z5.0000


(Nr. 179: Gravur 59)
G00 X55.1751 Y85.6430 Z5.0000
G00 Z0.5000
G01 Z0.0000 F20.000
G01 X55.1920 Y85.6197 Z-0.0250
G01 X55.1751 Y85.6430 Z-0.0500
G01 X57.5262 Y82.4069
G00 Z5.0000


(Nr. 180: Gravur 60)
G00 X57.9627 Y87.0636 Z5.0000
G00 Z0.5000
G01 Z0.0000 F20.000
G01 X57.9717 Y87.0361 Z-0.0250
G01 X57.9627 Y87.0636 Z-0.0500
G01 X59.1988 Y83.2591
G00 Z5.0000


(Nr. 181: Gravur 61)
G00 X61.0529 Y87.5528 Z5.0000
G00 Z0.5000
G01 Z0.0000 F20.000
G01 Y87.5239 Z-0.0250
G01 Y87.5528 Z-0.0500
G01 Y83.5528
G00 Z5.0000


(Nr. 182: Gravur 62)
G00 X64.1431 Y87.0636 Z5.0000
G00 Z0.5000
G01 Z0.0000 F20.000
G01 X64.1342 Y87.0361 Z-0.0250
G01 X64.1431 Y87.0636 Z-0.0500
G01 X62.9070 Y83.2591
G00 Z5.0000


(Nr. 183: Gravur 63)
G00 X66.9308 Y85.6430 Z5.0000
G00 Z0.5000
G01 Z0.0000 F20.000
G01 X66.9138 Y85.6197 Z-0.0250
G01 X66.9308 Y85.6430 Z-0.0500
G01 X64.5796 Y82.4069
G00 Z5.0000


(Nr. 184: Gravur 64)
G00 X69.1431 Y83.4309 Z5.0000
G00 Z0.5000
G01 Z0.0000 F20.000
G01 X69.1197 Y83.4139 Z-0.0250
G01 X69.1431 Y83.4309 Z-0.0500
G01 X65.9070 Y81.0795
G00 Z5.0000


(Nr. 185: Gravur 65)
G00 X70.5635 Y80.6432 Z5.0000
G00 Z0.5000
G01 Z0.0000 F20.000
G01 X70.5360 Y80.6343 Z-0.0250
G01 X70.5635 Y80.6432 Z-0.0500
G01 X66.7593 Y79.4060
G00 Z5.0000


(Nr. 186: Gravur 66)
G00 X71.0529 Y77.5539 Z5.0000
G00 Z0.5000
G01 Z0.0000 F20.000
G01 X71.0241 Z-0.0250
G01 X71.0529 Z-0.0500
G01 X67.0529
G00 Z5.0000


(Nr. 187: Gravur 67)
G00 X70.5635 Y74.4636 Z5.0000
G00 Z0.5000
G01 Z0.0000 F20.000
G01 X70.5360 Y74.4725 Z-0.0250
G01 X70.5635 Y74.4636 Z-0.0500
G01 X66.7593 Y75.6992
G00 Z5.0000


(Nr. 188: Gravur 68)
G00 X69.1431 Y71.6749 Z5.0000
G00 Z0.5000
G01 Z0.0000 F20.000
G01 X69.1197 Y71.6919 Z-0.0250
G01 X69.1431 Y71.6749 Z-0.0500
G01 X65.9070 Y74.0270
G00 Z5.0000


(Nr. 189: Gravur 69)
G00 X66.9308 Y69.4630 Z5.0000
G00 Z0.5000
G01 Z0.0000 F20.000
G01 X66.9138 Y69.4863 Z-0.0250
G01 X66.9308 Y69.4630 Z-0.0500
G01 X64.5796 Y72.6988
G00 Z5.0000


(Nr. 190: Gravur 94)
G00 X68.3322 Y69.4148 Z5.0000
G00 Z0.5000
G01 Z0.0000 F20.000
G01 X68.3611 Z-0.0250
G01 X68.3322 Z-0.0500
G01 X70.0620
G00 Z5.0000


(Nr. 191: Gravur 95)
G00 X69.1901 Y68.5434 Z5.0000
G00 Z0.5000
G01 Z0.0000 F20.000
G01 Y68.5723 Z-0.0250
G01 Y68.5434 Z-0.0500
G01 Y70.2767
G00 Z5.0000


(Nr. 192: Gravur 193)
G00 X80.0529 Y59.5517 Z5.0000
G00 Z0.5000
G01 Z0.0000 F20.000
G01 Y59.5228 Z-0.0250
G01 Y59.5517 Z-0.0500
G01 Y57.5541
G01 X82.0529
G01 Y59.5517
G01 X84.0529
G01 Y57.5541
G00 Z5.0000


(Nr. 193: Gravur 194)
G00 X86.0529 Y57.5541 Z5.0000
G00 Z0.5000
G01 Z0.0000 F20.000
G01 X86.0658 Y57.5799 Z-0.0250
G01 X86.0529 Y57.5541 Z-0.0500
G01 X87.0529 Y59.5517
G01 X88.0529 Y57.5541
G01 X89.0529 Y59.5517
G01 X90.0529 Y57.5541
G00 Z5.0000


(Nr. 194: Gravur 240)
G00 X122.3571 Y41.8061 Z5.0000
G00 Z0.5000
G01 Z0.0000 F20.000
G01 Y41.8350 Z-0.0250
G01 Y41.8061 Z-0.0500
G01 Y41.9782
G01 X122.1986 Y42.1367
G01 X120.5423
G01 X120.3500 Y41.9444
G01 Y41.3069
G01 X120.5086 Y41.1382
G01 X122.1783
G01 X122.3369 Y40.9763
G01 Y40.2872
G01 X122.1783 Y40.1278
G01 X120.4883
G01 X120.3500 Y40.2659
G01 Y40.4255
G00 Z5.0000


(Nr. 195: Gravur 241)
G00 X122.8462 Y40.1278 Z5.0000
G00 Z0.5000
G01 Z0.0000 F20.000
G01 Y40.1567 Z-0.0250
G01 Y40.1278 Z-0.0500
G01 Y42.4752
G01 Y41.7972
G01 X124.2596
G01 X124.4519 Y41.6151
G01 Y40.1170
G00 Z5.0000


(Nr. 196: Gravur 244)
G00 X125.5750 Y40.1278 Z5.0000
G00 Z0.5000
G01 Z0.0000 F20.000
G01 Y40.1567 Z-0.0250
G01 Y40.1278 Z-0.0500
G01 Y41.7837
G01 X126.4655
G00 Z5.0000


(Nr. 197: Gravur 245)
G00 X126.4790 Y42.4010 Z5.0000
G00 Z0.5000
G01 Z0.0000 F20.000
G01 X126.4502 Z-0.0250
G01 X126.4790 Z-0.0500
G01 X125.7538
G01 X125.5750 Y42.2222
G01 Y40.1278
G00 Z5.0000


(Nr. 198: Gravur 251)
G00 X126.1802 Y38.8724 Z5.0000
G00 Z0.5000
G01 Z0.0000 F20.000
G01 Y38.8435 Z-0.0250
G01 Y38.8724 Z-0.0500
G01 Y37.0630
G01 Y37.7467
G01 X126.7184
G01 X127.3214 Y38.4247
G00 Z5.0000


(Nr. 199: Gravur 252)
G00 X127.3292 Y37.0710 Z5.0000
G00 Z0.5000
G01 Z0.0000 F20.000
G01 X127.3098 Y37.0925 Z-0.0250
G01 X127.3292 Y37.0710 Z-0.0500
G01 X126.7184 Y37.7467
G01 X126.1802
G01 Y37.0630
G01 Y38.8724
G00 Z5.0000


(Nr. 200: Gravur 250)
G00 X125.5971 Y37.0550 Z5.0000
G00 Z0.5000
G01 Z0.0000 F20.000
G01 Y37.0839 Z-0.0250
G01 Y37.0550 Z-0.0500
G01 Y38.2045
G01 X125.4755 Y38.3261
G01 X124.3679
G01 Y37.0630
G00 Z5.0000


(Nr. 201: Gravur 249)
G00 X123.8785 Y37.6574 Z5.0000
G00 Z0.5000
G01 Z0.0000 F20.000
G01 X123.8497 Z-0.0250
G01 X123.8785 Z-0.0500
G01 X122.6649
G01 Y37.1934
G01 X122.7942 Y37.0630
G01 X123.8941
G01 Y38.1465
G01 X123.7569 Y38.2785
G01 X122.6079
G00 Z5.0000


(Nr. 202: Gravur 248)
G00 X120.7324 Y37.8700 Z5.0000
G00 Z0.5000
G01 Z0.0000 F20.000
G01 X120.7108 Y37.8509 Z-0.0250
G01 X120.7324 Y37.8700 Z-0.0500
G01 X120.6418 Y37.7898
G01 Y37.9606
G01 X120.7324 Y37.8700
G01 X122.0211
G01 X122.1194 Y38.0175
G01 Y38.4238
G01 X121.9460 Y38.5946
G01 X120.6263
G01 X120.6185 Y37.0630
G01 X122.0211
G01 X122.1660 Y37.2099
G01 Y37.7303
G01 X122.0211 Y37.8700
G00 Z5.0000


(Nr. 203: Gravur 242)
G00 X125.0016 Y41.8615 Z5.0000
G00 Z0.5000
G01 Z0.0000 F20.000
G01 Y41.8326 Z-0.0250
G01 Y41.8615 Z-0.0500
G01 Y40.1384
G01 X125.0117 Y40.1172
G00 Z5.0000


(Nr. 204: Gravur 243)
G00 X124.9476 Y42.4653 Z5.0000
G00 Z0.5000
G01 Z0.0000 F20.000
G01 X124.9765 Z-0.0250
G01 X124.9476 Z-0.0500
G01 X125.0859
G01 Y42.3270
G01 X124.9476
G01 Y42.4653
G00 Z5.0000


(Nr. 205: Gravur 247)
G00 X127.7574 Y41.6775 Z5.0000
G00 Z0.5000
G01 Z0.0000 F20.000
G01 X127.7285 Z-0.0250
G01 X127.7574 Z-0.0500
G01 X126.8770
G01 Y42.3791
G00 Z5.0000


(Nr. 206: Gravur 246)
G00 X127.7574 Y40.1278 Z5.0000
G00 Z0.5000
G01 Z0.0000 F20.000
G01 X127.7285 Z-0.0250
G01 X127.7574 Z-0.0500
G01 X126.9950
G01 X126.8770 Y40.2553
G01 Y42.3791
G00 Z5.0000


(Nr. 207: Gravur 235)
G00 X131.2648 Y48.9772 Z5.0000
G00 Z0.5000
G01 Z0.0000 F20.000
G01 X131.2360 Z-0.0250
G01 X131.2648 Z-0.0500
G01 X129.8762
G01 Y50.3381
G00 Z5.0000


(Nr. 208: Gravur 227)
G00 X131.0826 Y51.7448 Z5.0000
G00 Z0.5000
G01 Z0.0000 F20.000
G01 X131.0643 Y51.7671 Z-0.0250
G01 X131.0826 Y51.7448 Z-0.0500
G01 X130.5707 Y52.3681
G01 X129.9054
G01 X131.0136
G01 X131.1382 Y52.4883
G01 Y53.0068
G01 X131.0203 Y53.1248
G01 X129.8074
G01 Y51.7448
G00 Z5.0000


(Nr. 209: Gravur 228)
G00 X131.0826 Y51.7448 Z5.0000
G00 Z0.5000
G01 Z0.0000 F20.000
G01 X131.0643 Y51.7671 Z-0.0250
G01 X131.0826 Y51.7448 Z-0.0500
G01 X130.5707 Y52.3681
G01 X129.9054
G01 X131.0136
G01 X131.1382 Y52.4883
G01 Y53.0068
G01 X131.0203 Y53.1248
G01 X129.8074
G01 Y51.7448
G00 Z5.0000


(Nr. 210: Gravur 229)
G00 X131.5533 Y52.2786 Z5.0000
G00 Z0.5000
G01 Z0.0000 F20.000
G01 X131.5822 Z-0.0250
G01 X131.5533 Z-0.0500
G01 X132.6104
G01 Y52.6836
G01 X132.4924 Y52.8037
G01 X131.6802
G01 X131.5600 Y52.6769
G01 Y51.8640
G01 X131.6713 Y51.7448
G01 X132.6682
G00 Z5.0000


(Nr. 211: Gravur 230)
G00 X132.6682 Y51.7448 Z5.0000
G00 Z0.5000
G01 Z0.0000 F20.000
G01 X132.6394 Z-0.0250
G01 X132.6682 Z-0.0500
G01 X131.6713
G01 X131.5600 Y51.8640
G01 Y52.6769
G01 X131.6802 Y52.8037
G01 X132.4924
G01 X132.6104 Y52.6836
G01 Y52.2786
G01 X131.5533
G00 Z5.0000


(Nr. 212: Gravur 232)
G00 X133.0628 Y51.9200 Z5.0000
G00 Z0.5000
G01 Z0.0000 F20.000
G01 Y51.8912 Z-0.0250
G01 Y51.9200 Z-0.0500
G01 Y51.8499
G01 X133.1607 Y51.7518
G01 X134.0019
G01 X134.1065 Y51.8640
G01 Y52.1651
G01 X134.0086 Y52.2630
G01 X133.1896
G01 X133.0762 Y52.3765
G01 Y52.6902
G01 X133.1963 Y52.8037
G01 X133.9886
G01 X134.0998 Y52.6902
G01 Y52.6279
G00 Z5.0000


(Nr. 213: Gravur 231)
G00 X134.5404 Y52.2786 Z5.0000
G00 Z0.5000
G01 Z0.0000 F20.000
G01 X134.5693 Z-0.0250
G01 X134.5404 Z-0.0500
G01 X135.5974
G01 Y52.6836
G01 X135.4795 Y52.8037
G01 X134.6672
G01 X134.5471 Y52.6769
G01 Y51.8640
G01 X134.6583 Y51.7448
G01 X135.6553
G00 Z5.0000


(Nr. 214: Gravur 233)
G00 X136.6307 Y51.7658 Z5.0000
G00 Z0.5000
G01 Z0.0000 F20.000
G01 X136.6018 Z-0.0250
G01 X136.6307 Z-0.0500
G01 X136.1278
G01 X136.0499 Y51.8499
G01 Y53.2510
G00 Z5.0000


(Nr. 215: Gravur 234)
G00 X136.6307 Y52.7882 Z5.0000
G00 Z0.5000
G01 Z0.0000 F20.000
G01 X136.6018 Z-0.0250
G01 X136.6307 Z-0.0500
G01 X136.0499
G01 Y53.2510
G00 Z5.0000


(Nr. 216: Gravur 239)
G00 X135.1447 Y50.0777 Z5.0000
G00 Z0.5000
G01 Z0.0000 F20.000
G01 Y50.1066 Z-0.0250
G01 Y50.0777 Z-0.0500
G01 Y50.1623
G01 X135.2849 Y50.3025
G01 X136.3798
G01 X136.5044 Y50.1690
G01 Y49.7417
G01 X136.3798 Y49.6149
G01 X135.2782
G01 X135.1447 Y49.4813
G01 Y48.9772
G01 X136.5601
G00 Z5.0000


(Nr. 217: Gravur 238)
G00 X134.5254 Y50.2802 Z5.0000
G00 Z0.5000
G01 Z0.0000 F20.000
G01 X134.4966 Y50.2804 Z-0.0250
G01 X134.5254 Y50.2802 Z-0.0500
G01 X133.4239 Y50.2869
G01 X133.3126 Y50.1623
G01 Y49.0894
G01 X133.4328 Y48.9772
G01 X134.5254
G01 X134.6367 Y49.0894
G01 Y50.1823
G01 X134.5254 Y50.2802
G00 Z5.0000


(Nr. 218: Gravur 237)
G00 X132.9567 Y50.3660 Z5.0000
G00 Z0.5000
G01 Z0.0000 F20.000
G01 X132.9278 Z-0.0250
G01 X132.9567 Z-0.0500
G01 X131.6949
G01 Y48.9772
G00 Z5.0000


(Nr. 219: Gravur 236)
G00 X132.7186 Y49.7207 Z5.0000
G00 Z0.5000
G01 Z0.0000 F20.000
G01 X132.6897 Z-0.0250
G01 X132.7186 Z-0.0500
G01 X131.6949
G01 Y48.9772
G00 Z5.0000


(Nr. 220: Gravur 253)
G00 X138.1805 Y40.4697 Z5.0000
G00 Z0.5000
G01 Z0.0000 F20.000
G01 Y40.4409 Z-0.0250
G01 Y40.4697 Z-0.0500
G01 Y40.2855
G01 X138.3035 Y40.1261
G01 X139.8068
G01 X139.9478 Y40.3101
G01 Y41.1056
G01 X139.8068 Y41.2925
G01 X138.3215
G01 X138.1805 Y41.4872
G01 Y42.2232
G01 X138.3515 Y42.4452
G01 X139.8248
G01 X139.9658 Y42.2621
G01 Y42.0635
G00 Z5.0000


(Nr. 221: Gravur 254)
G00 X141.8521 Y41.0205 Z5.0000
G00 Z0.5000
G01 Z0.0000 F20.000
G01 X141.8233 Z-0.0250
G01 X141.8521 Z-0.0500
G01 X140.4449
G01 Y40.3223
G01 X140.5949 Y40.1261
G01 X141.8701
G01 Y41.7565
G01 X141.7111 Y41.9551
G01 X140.3789
G00 Z5.0000


(Nr. 222: Gravur 255)
G00 X144.0330 Y42.1747 Z5.0000
G00 Z0.5000
G01 Z0.0000 F20.000
G01 X144.0214 Y42.1483 Z-0.0250
G01 X144.0330 Y42.1747 Z-0.0500
G01 X143.1269 Y40.1261
G01 X142.2657 Y42.1514
G00 Z5.0000


(Nr. 223: Gravur 256)
G00 X144.4231 Y41.0601 Z5.0000
G00 Z0.5000
G01 Z0.0000 F20.000
G01 X144.4520 Z-0.0250
G01 X144.4231 Z-0.0500
G01 X145.8484
G01 Y41.7688
G01 X145.6893 Y41.9790
G01 X144.5942
G01 X144.4321 Y41.7571
G01 Y40.3346
G01 X144.5821 Y40.1261
G01 X145.9264
G00 Z5.0000


(Nr. 224: Gravur 115)
G00 X134.5746 Y67.2552 Z5.0000
G00 Z0.5000
G01 Z0.0000 F20.000
G01 X134.5457 Z-0.0250
G01 X134.5746 Z-0.0500
G01 X133.2696
G01 X133.0424 Y67.0065
G01 Y65.7447
G01 X133.2335 Y65.5403
G01 X134.5529
G01 X134.7332 Y65.7220
G01 Y67.0858
G01 X134.5746 Y67.2552
G00 Z5.0000


(Nr. 225: Gravur 116)
G00 X135.3999 Y67.9582 Z5.0000
G00 Z0.5000
G01 Z0.0000 F20.000
G01 Y67.9293 Z-0.0250
G01 Y67.9582 Z-0.0500
G01 Y65.7448
G01 X135.6017 Y65.5404
G01 X135.9658
G00 Z5.0000


(Nr. 226: Gravur 133)
G00 X138.9308 Y69.4630 Z5.0000
G00 Z0.5000
G01 Z0.0000 F20.000
G01 X138.9138 Y69.4863 Z-0.0250
G01 X138.9308 Y69.4630 Z-0.0500
G01 X136.5797 Y72.6988
G00 Z5.0000


(Nr. 227: Gravur 132)
G00 X141.1432 Y71.6749 Z5.0000
G00 Z0.5000
G01 Z0.0000 F20.000
G01 X141.1199 Y71.6919 Z-0.0250
G01 X141.1432 Y71.6749 Z-0.0500
G01 X137.9071 Y74.0270
G00 Z5.0000


(Nr. 228: Gravur 131)
G00 X142.5635 Y74.4636 Z5.0000
G00 Z0.5000
G01 Z0.0000 F20.000
G01 X142.5360 Y74.4725 Z-0.0250
G01 X142.5635 Y74.4636 Z-0.0500
G01 X138.7593 Y75.6992
G00 Z5.0000


(Nr. 229: Gravur 130)
G00 X143.0530 Y77.5539 Z5.0000
G00 Z0.5000
G01 Z0.0000 F20.000
G01 X143.0241 Z-0.0250
G01 X143.0530 Z-0.0500
G01 X139.0530
G00 Z5.0000


(Nr. 230: Gravur 129)
G00 X142.5635 Y80.6432 Z5.0000
G00 Z0.5000
G01 Z0.0000 F20.000
G01 X142.5361 Y80.6343 Z-0.0250
G01 X142.5635 Y80.6432 Z-0.0500
G01 X138.7593 Y79.4060
G00 Z5.0000


(Nr. 231: Gravur 127)
G00 X136.5797 Y82.4069 Z5.0000
G00 Z0.5000
G01 Z0.0000 F20.000
G01 X136.5967 Y82.4303 Z-0.0250
G01 X136.5797 Y82.4069 Z-0.0500
G01 X138.9308 Y85.6430
G00 Z5.0000


(Nr. 232: Gravur 128)
G00 X141.1432 Y83.4309 Z5.0000
G00 Z0.5000
G01 Z0.0000 F20.000
G01 X141.1199 Y83.4139 Z-0.0250
G01 X141.1432 Y83.4309 Z-0.0500
G01 X137.9071 Y81.0795
G00 Z5.0000


(Nr. 233: Gravur 126)
G00 X134.9070 Y83.2591 Z5.0000
G00 Z0.5000
G01 Z0.0000 F20.000
G01 X134.9159 Y83.2866 Z-0.0250
G01 X134.9070 Y83.2591 Z-0.0500
G01 X136.1431 Y87.0636
G00 Z5.0000


(Nr. 234: Gravur 125)
G00 X133.0528 Y83.5528 Z5.0000
G00 Z0.5000
G01 Z0.0000 F20.000
G01 Y83.5817 Z-0.0250
G01 Y83.5528 Z-0.0500
G01 Y87.5528
G00 Z5.0000


(Nr. 235: Gravur 124)
G00 X131.1989 Y83.2591 Z5.0000
G00 Z0.5000
G01 Z0.0000 F20.000
G01 X131.1899 Y83.2866 Z-0.0250
G01 X131.1989 Y83.2591 Z-0.0500
G01 X129.9627 Y87.0636
G00 Z5.0000


(Nr. 236: Gravur 123)
G00 X129.5262 Y82.4069 Z5.0000
G00 Z0.5000
G01 Z0.0000 F20.000
G01 X129.5092 Y82.4303 Z-0.0250
G01 X129.5262 Y82.4069 Z-0.0500
G01 X127.1751 Y85.6430
G00 Z5.0000


(Nr. 237: Gravur 122)
G00 X128.1987 Y81.0795 Z5.0000
G00 Z0.5000
G01 Z0.0000 F20.000
G01 X128.1754 Y81.0965 Z-0.0250
G01 X128.1987 Y81.0795 Z-0.0500
G01 X124.9626 Y83.4309
G00 Z5.0000


(Nr. 238: Gravur 121)
G00 X127.3465 Y79.4060 Z5.0000
G00 Z0.5000
G01 Z0.0000 F20.000
G01 X127.3191 Y79.4149 Z-0.0250
G01 X127.3465 Y79.4060 Z-0.0500
G01 X123.5423 Y80.6432
G00 Z5.0000


(Nr. 239: Gravur 120)
G00 X127.0528 Y77.5539 Z5.0000
G00 Z0.5000
G01 Z0.0000 F20.000
G01 X127.0240 Z-0.0250
G01 X127.0528 Z-0.0500
G01 X123.0529
G00 Z5.0000


(Nr. 240: Gravur 119)
G00 X123.5423 Y74.4636 Z5.0000
G00 Z0.5000
G01 Z0.0000 F20.000
G01 X123.5698 Y74.4725 Z-0.0250
G01 X123.5423 Y74.4636 Z-0.0500
G01 X127.3465 Y75.6992
G00 Z5.0000


(Nr. 241: Gravur 118)
G00 X124.9626 Y71.6749 Z5.0000
G00 Z0.5000
G01 Z0.0000 F20.000
G01 X124.9860 Y71.6919 Z-0.0250
G01 X124.9626 Y71.6749 Z-0.0500
G01 X128.1987 Y74.0270
G00 Z5.0000


(Nr. 242: Gravur 117)
G00 X127.1751 Y69.4630 Z5.0000
G00 Z0.5000
G01 Z0.0000 F20.000
G01 X127.1920 Y69.4863 Z-0.0250
G01 X127.1751 Y69.4630 Z-0.0500
G01 X129.5262 Y72.6988
G00 Z5.0000


(Nr. 243: Gravur 114)
G00 X130.1414 Y67.8472 Z5.0000
G00 Z0.5000
G01 Z0.0000 F20.000
G01 X130.1560 Y67.8223 Z-0.0250
G01 X130.1414 Y67.8472 Z-0.0500
G01 X131.4932 Y65.5404
G01 X132.8775 Y67.8580
G00 Z5.0000


(Nr. 244: Gravur 136)
G00 X125.7353 Y69.4101 Z5.0000
G00 Z0.5000
G01 Z0.0000 F20.000
G01 X125.7064 Z-0.0250
G01 X125.7353 Z-0.0500
G01 X124.3709
G00 Z5.0000


(Nr. 245: Gravur 135)
G00 X140.1881 Y69.4148 Z5.0000
G00 Z0.5000
G01 Z0.0000 F20.000
G01 X140.2169 Z-0.0250
G01 X140.1881 Z-0.0500
G01 X141.9178
G00 Z5.0000


(Nr. 246: Gravur 134)
G00 X141.0459 Y70.2767 Z5.0000
G00 Z0.5000
G01 Z0.0000 F20.000
G01 Y70.2478 Z-0.0250
G01 Y70.2767 Z-0.0500
G01 Y68.5434
G00 Z5.0000


(Nr. 247: Gravur 73)
G00 X78.3980 Y92.3415 Z5.0000
G00 Z0.5000
G01 Z0.0000 F20.000
G01 X78.3691 Z-0.0250
G01 X78.3980 Z-0.0500
G01 X76.2870
G01 X76.0320 Y92.0865
G01 Y90.3770
G01 X76.2870 Y90.1092
G01 X78.3980
G00 Z5.0000


(Nr. 248: Gravur 52)
G00 X52.5137 Y69.4101 Z5.0000
G00 Z0.5000
G01 Z0.0000 F20.000
G01 X52.5426 Z-0.0250
G01 X52.5137 Z-0.0500
G01 X53.8782
G00 Z5.0000


(Nr. 249: Gravur 50)
G00 X46.9357 Y62.8981 Z5.0000
G00 Z0.5000
G01 Z0.0000 F20.000
G01 X46.9068 Y62.8982 Z-0.0250
G01 X46.9357 Y62.8981 Z-0.0500
G01 X44.7692 Y62.9112
G01 X44.5503 Y62.6661
G01 Y60.5560
G01 X44.7867 Y60.3352
G01 X46.9357
G01 X47.1545 Y60.5560
G01 Y62.7055
G01 X46.9357 Y62.8981
G00 Z5.0000


(Nr. 250: Gravur 51)
G00 X48.1036 Y61.5519 Z5.0000
G00 Z0.5000
G01 Z0.0000 F20.000
G01 X48.1324 Z-0.0250
G01 X48.1036 Z-0.0500
G01 X71.0573
G02 X72.0529 Y60.5529 I-0.0027 J-0.9983
G01 Y56.5540
G00 Z5.0000


(Nr. 251: Gravur 48)
G00 X43.4173 Y61.6594 Z5.0000
G00 Z0.5000
G01 Z0.0000 F20.000
G01 X43.3885 Z-0.0250
G01 X43.4173 Z-0.0500
G01 X41.4040
G01 Y60.1971
G00 Z5.0000


(Nr. 252: Gravur 49)
G00 X41.4040 Y60.1971 Z5.0000
G00 Z0.5000
G01 Z0.0000 F20.000
G01 Y60.2260 Z-0.0250
G01 Y60.1971 Z-0.0500
G01 Y62.9287
G01 X43.8857
G00 Z5.0000


(Nr. 253: Gravur 47)
G00 X38.0082 Y63.0119 Z5.0000
G00 Z0.5000
G01 Z0.0000 F20.000
G01 Y62.9830 Z-0.0250
G01 Y63.0119 Z-0.0500
G01 Y60.3352
G01 X40.7394
G00 Z5.0000
G00 X0.0000 Y0.0000

M05
M30
